;FLAVOR:UltiGCode
;TIME:19680
;MATERIAL:44877
;MATERIAL2:0
;NOZZLE_DIAMETER:0.6
;MINX:38.415
;MINY:124.991
;MINZ:0.4
;MAXX:184.585
;MAXY:144.561
;MAXZ:100
;TARGET_MACHINE.NAME:Ultimaker 2+
;Generated with Cura_SteamEngine 5.8.1
M82 ;absolute extrusion mode
G0 F3000 Y50 ;avoid prime blob
G92 E0
G92 E0
G10
;LAYER_COUNT:665
;LAYER:0
M107
G0 F7200 X40.713 Y125.159 Z0.4
;TYPE:SKIRT
G11
G1 F1800 X41.213 Y125.04 E0.12335
G1 X41.729 Y124.992 E0.24773
G1 X180.625 Y124.991 E33.58277
G1 X181.323 Y125.001 E33.7503
G1 X181.835 Y125.049 E33.87372
G1 X182.332 Y125.175 E33.99678
G1 X182.804 Y125.376 E34.1199
G1 X183.24 Y125.649 E34.24336
G1 X183.627 Y125.985 E34.36636
G1 X183.958 Y126.378 E34.48968
G1 X184.224 Y126.817 E34.61287
G1 X184.418 Y127.293 E34.73623
G1 X184.537 Y127.792 E34.85935
G1 X184.584 Y128.305 E34.98299
G1 X184.585 Y130.581 E35.52923
G1 X184.575 Y131.302 E35.70228
G1 X184.528 Y131.813 E35.82544
G1 X184.402 Y132.311 E35.94873
G1 X184.139 Y132.926 E36.10926
G1 X182.159 Y135.679 E36.92312
G1 X181.828 Y136.071 E37.04625
G1 X181.44 Y136.407 E37.16943
G1 X181.004 Y136.679 E37.29277
G1 X180.532 Y136.88 E37.41589
G1 X179.963 Y137.023 E37.5567
G1 X179.016 Y137.104 E37.78481
G1 X177.636 Y137.203 E38.11686
G1 X174.964 Y137.471 E38.76136
G1 X172.238 Y137.823 E39.42103
G1 X169.524 Y138.252 E40.08047
G1 X166.833 Y138.754 E40.73746
G1 X164.187 Y139.327 E41.38722
G1 X161.505 Y139.986 E42.05004
G1 X158.899 Y140.708 E42.69904
G1 X156.251 Y141.52 E43.36377
G1 X153.671 Y142.393 E44.01746
G1 X150.239 Y143.682 E44.89732
G1 X149.249 Y144.075 E45.15295
G1 X148.768 Y144.235 E45.27461
G1 X148.01 Y144.408 E45.46121
G1 X147.466 Y144.498 E45.59355
G1 X146.358 Y144.557 E45.85984
G1 X77.161 Y144.561 E62.46712
G1 X76.103 Y144.542 E62.72108
G1 X75.302 Y144.462 E62.91428
G1 X74.806 Y144.373 E63.03522
G1 X73.949 Y144.152 E63.24763
G1 X70.803 Y142.93 E64.05763
G1 X68.249 Y142.019 E64.70842
G1 X65.627 Y141.168 E65.37001
G1 X62.989 Y140.392 E66.02995
G1 X60.343 Y139.694 E66.68672
G1 X57.722 Y139.082 E67.33268
G1 X54.978 Y138.523 E68.00477
G1 X52.3 Y138.055 E68.65723
G1 X49.64 Y137.668 E69.30235
G1 X46.9 Y137.348 E69.96442
G1 X43.278 Y137.041 E70.83681
G1 X42.771 Y136.964 E70.95989
G1 X42.281 Y136.809 E71.08323
G1 X41.822 Y136.58 E71.20634
G1 X41.403 Y136.282 E71.32974
G1 X40.976 Y135.865 E71.47298
G1 X39.047 Y133.186 E72.26528
G1 X38.78 Y132.747 E72.38859
G1 X38.585 Y132.272 E72.51183
G1 X38.465 Y131.773 E72.635
G1 X38.415 Y131.228 E72.76635
G1 X38.415 Y128.92 E73.32027
G1 X38.424 Y128.255 E73.47988
G1 X38.471 Y127.744 E73.60304
G1 X38.597 Y127.246 E73.72633
G1 X38.798 Y126.774 E73.84945
G1 X39.07 Y126.339 E73.97258
G1 X39.407 Y125.951 E74.09592
G1 X39.799 Y125.62 E74.21905
G1 X40.238 Y125.353 E74.34237
G1 X40.713 Y125.159 E74.46551
G10
;MESH:Part_Acrylic_Case_Back.STL
G0 F7200 X83.95 Y135.507
G0 X86.061 Y136.307
;TYPE:WALL-OUTER
G11
G1 F1500 X85.288 Y135.918 E74.69397
G1 X84.677 Y135.281 E74.92699
G1 X84.472 Y134.452 E75.15244
G1 X84.524 Y133.769 E75.33327
G1 X84.798 Y133.152 E75.5115
G1 X85.284 Y132.633 E75.69921
G1 X85.912 Y132.316 E75.88493
G1 X86.594 Y132.237 E76.06618
G1 X87.431 Y132.414 E76.29203
G1 X88.089 Y132.991 E76.52307
G1 X88.513 Y133.761 E76.75513
G1 X88.505 Y134.806 E77.03102
G1 X88.087 Y135.551 E77.25655
G1 X87.567 Y136.012 E77.44001
G1 X86.937 Y136.267 E77.61943
G1 X86.061 Y136.307 E77.85094
G0 F7200 X85.793 Y136.173
G10
G0 X85.613 Y136.528
G0 X87 Y136.608
G0 X89.267 Y135
G0 X133.95 Y135.507
G0 X136.061 Y136.307
G11
G1 F1500 X135.288 Y135.918 E78.07939
G1 X134.677 Y135.281 E78.31242
G1 X134.472 Y134.452 E78.53786
G1 X134.524 Y133.769 E78.7187
G1 X134.798 Y133.152 E78.89693
G1 X135.284 Y132.633 E79.08464
G1 X135.912 Y132.316 E79.27035
G1 X136.594 Y132.237 E79.45161
G1 X137.431 Y132.414 E79.67746
G1 X138.089 Y132.991 E79.9085
G1 X138.513 Y133.761 E80.14056
G1 X138.505 Y134.806 E80.41645
G1 X138.087 Y135.551 E80.64197
G1 X137.567 Y136.012 E80.82543
G1 X136.937 Y136.267 E81.00486
G1 X136.061 Y136.307 E81.23637
G0 F7200 X135.793 Y136.173
G10
G0 X135.613 Y136.528
G0 X137 Y136.608
G0 X139.267 Y135
G0 X150.284 Y135
G0 X179.259 Y129.959
G0 X179.064 Y131.047
G11
G1 F1500 X179.312 Y130.844 E81.32097
G1 X180.864 Y130.84 E81.7307
G1 X180.864 Y128.708 E82.29355
G1 X42.132 Y128.708 E118.9188
G1 X42.132 Y130.84 E119.48165
G1 X43.76 Y130.84 E119.91144
G1 X43.932 Y131.047 E119.98249
G1 X43.932 Y133.34 E120.58784
G1 X59.064 Y133.34 E124.58269
G1 X59.064 Y131.047 E125.18804
G1 X59.312 Y130.844 E125.27265
G1 X71.632 Y130.84 E128.52513
G1 X71.932 Y131.053 E128.62226
G1 X71.932 Y136.255 E129.99559
G1 X71.994 Y137 E130.19295
G1 X72.155 Y137.67 E130.37487
G1 X72.437 Y138.347 E130.56848
G1 X72.812 Y138.963 E130.75887
G1 X73.269 Y139.503 E130.94563
G1 X73.809 Y139.96 E131.13239
G1 X74.429 Y140.339 E131.32423
G1 X75.101 Y140.617 E131.51622
G1 X75.776 Y140.778 E131.69942
G1 X76.529 Y140.84 E131.89888
G1 X146.467 Y140.84 E150.36251
G1 X147.224 Y140.778 E150.56303
G1 X147.899 Y140.617 E150.74623
G1 X148.571 Y140.339 E150.93822
G1 X149.187 Y139.96 E151.12916
G1 X149.727 Y139.503 E151.31592
G1 X150.184 Y138.963 E151.50268
G1 X150.564 Y138.346 E151.69398
G1 X150.845 Y137.671 E151.88701
G1 X151.002 Y137.001 E152.06868
G1 X151.064 Y136.243 E152.26946
G1 X151.064 Y131.054 E153.63935
G1 X151.312 Y130.844 E153.72514
G1 X163.632 Y130.84 E156.97763
G1 X163.932 Y131.047 E157.07385
G1 X163.932 Y133.34 E157.6792
G1 X179.064 Y133.34 E161.67405
G1 X179.064 Y131.047 E162.2794
G0 F7200 X179.296 Y130.857
G10
G0 X179.353 Y129.862
G0 X164.489 Y129.448
G0 X151.259 Y129.959
G0 X150.824 Y130.419
;TYPE:WALL-INNER
G11
G1 F1551.8 X151.208 Y130.157 E162.40058
G1 F1366.9 X163.632 Y130.157 E166.0264
G1 F1559.4 X164.153 Y130.406 E166.17627
G1 F1800 X164.448 Y130.76 E166.28134
G1 X164.531 Y131.1 E166.36113
G1 X164.532 Y132.74 E166.73505
G1 X178.464 Y132.74 E169.91155
G1 X178.465 Y131.1 E170.28547
G1 X178.548 Y130.76 E170.36526
G1 X178.843 Y130.406 E170.47033
G1 F1551.8 X179.208 Y130.157 E170.58551
G1 F1366.9 X180.181 Y130.157 E170.86947
G1 F1370.9 X180.181 Y129.391 E171.09244
G1 F1358.9 X179.127 Y129.396 E171.40164
G1 F1546.7 X178.493 Y129.307 E171.56902
G1 F1800 X164.503 Y129.307 E174.75874
G1 F1559.4 X163.632 Y129.391 E174.98585
G1 F1358.9 X151.127 Y129.396 E178.65431
G1 F1546.7 X150.454 Y129.308 E178.83176
G1 F1800 X72.543 Y129.307 E196.59547
G1 F1559.4 X71.632 Y129.391 E196.83291
G1 F1358.9 X59.127 Y129.396 E200.50138
G1 F1546.7 X58.493 Y129.307 E200.66876
G1 F1800 X44.503 Y129.307 E203.85848
G1 F1559.4 X43.632 Y129.391 E204.08559
G1 F1370.9 X42.815 Y129.391 E204.3234
G1 X42.815 Y130.157 E204.54637
G1 X43.632 Y130.157 E204.78418
G1 F1559.4 X44.153 Y130.406 E204.93405
G1 F1800 X44.448 Y130.76 E205.03911
G1 X44.531 Y131.1 E205.11891
G1 X44.532 Y132.74 E205.49283
G1 X58.464 Y132.74 E208.66932
G1 X58.465 Y131.1 E209.04324
G1 X58.548 Y130.76 E209.12304
G1 X58.843 Y130.406 E209.2281
G1 F1551.8 X59.208 Y130.157 E209.34328
G1 F1366.9 X71.632 Y130.157 E212.9691
G1 F1559.4 X72.172 Y130.42 E213.12499
G1 F1800 X72.463 Y130.793 E213.23286
G1 X72.532 Y131.14 E213.31352
G1 X72.532 Y136.231 E214.47427
G1 X72.588 Y136.905 E214.62847
G1 X72.727 Y137.484 E214.76424
G1 X72.973 Y138.074 E214.90998
G1 X73.3 Y138.611 E215.05333
G1 X73.695 Y139.077 E215.19261
G1 X74.161 Y139.472 E215.33189
G1 X74.702 Y139.803 E215.4765
G1 X75.287 Y140.045 E215.62084
G1 X75.87 Y140.184 E215.75749
G1 X76.553 Y140.24 E215.91374
G1 X146.443 Y140.24 E231.84866
G1 X147.13 Y140.184 E232.00581
G1 X147.713 Y140.045 E232.14246
G1 X148.297 Y139.803 E232.28659
G1 X148.834 Y139.473 E232.4303
G1 X149.301 Y139.077 E232.5699
G1 X149.697 Y138.61 E232.70951
G1 X150.028 Y138.072 E232.85353
G1 X150.272 Y137.486 E232.99825
G1 X150.408 Y136.908 E233.13364
G1 X150.464 Y136.219 E233.29125
G1 X150.464 Y131.14 E234.44926
G1 X150.533 Y130.793 E234.52992
G1 X150.824 Y130.419 E234.63797
G10
G0 F7200 X151.259 Y129.959
G0 X150.746 Y136.242
G0 X139.267 Y135
G0 X135.927 Y136.912
G11
G1 F1800 X134.927 Y136.409 E234.89318
G1 X134.14 Y135.596 E235.15117
G1 X133.863 Y134.516 E235.40538
G1 X133.929 Y133.615 E235.61136
G1 X134.294 Y132.812 E235.81247
G1 X134.919 Y132.144 E236.02104
G1 X135.736 Y131.733 E236.22956
G1 X136.635 Y131.633 E236.4358
G1 X137.478 Y131.811 E236.63224
G1 X137.886 Y132.015 E236.73624
G1 X138.562 Y132.608 E236.94127
G1 X139.113 Y133.593 E237.1986
G1 X139.107 Y134.955 E237.50914
G1 X138.564 Y135.938 E237.76518
G1 X137.886 Y136.53 E237.9704
G1 X137.056 Y136.866 E238.17456
G1 X135.927 Y136.912 E238.43219
G10
G0 F7200 X134.832 Y136.541
G0 X87.972 Y136.669
G0 X85.927 Y136.912
G11
G1 F1800 X84.927 Y136.409 E238.6874
G1 X84.14 Y135.596 E238.94539
G1 X83.863 Y134.516 E239.1996
G1 X83.929 Y133.615 E239.40558
G1 X84.294 Y132.812 E239.60669
G1 X84.919 Y132.144 E239.81526
G1 X85.736 Y131.733 E240.02378
G1 X86.635 Y131.633 E240.23002
G1 X87.478 Y131.811 E240.42646
G1 X87.886 Y132.015 E240.53046
G1 X88.562 Y132.608 E240.73549
G1 X89.113 Y133.593 E240.99282
G1 X89.107 Y134.955 E241.30336
G1 X88.564 Y135.938 E241.5594
G1 X87.886 Y136.53 E241.76462
G1 X87.056 Y136.866 E241.96878
G1 X85.927 Y136.912 E242.2264
G0 F7200 X85.816 Y137.395
;TYPE:SKIN
G1 F1200 X84.639 Y136.801 E242.51197
G1 X83.704 Y135.835 E242.80316
G1 X83.379 Y134.566 E243.0869
G1 X83.456 Y133.488 E243.32099
G1 X83.886 Y132.544 E243.54567
G1 X84.625 Y131.751 E243.78046
G1 X85.588 Y131.268 E244.01381
G1 X86.642 Y131.141 E244.24376
G1 X87.599 Y131.346 E244.45575
G1 X88.184 Y131.636 E244.59717
G1 X88.937 Y132.296 E244.81406
G1 X89.592 Y133.465 E245.1043
G1 X89.581 Y135.074 E245.45282
G1 X88.942 Y136.243 E245.74138
G1 X88.141 Y136.943 E245.97179
G1 X87.169 Y137.335 E246.1988
G1 X85.816 Y137.395 E246.49215
G10
G0 F7200 X85.908 Y136.997
G0 X84.38 Y135.462
G0 X83.773 Y133.572
G0 X83.773 Y129.031
G0 X71.74 Y129.53
G0 X72.151 Y129.859
G11
G1 F1200 X72.473 Y130.047 E246.57291
G1 X72.865 Y130.543 E246.70985
G1 X73.007 Y131.089 E246.83205
G1 X73.012 Y136.216 E247.94256
G1 X73.062 Y136.832 E248.07642
G1 X73.179 Y137.322 E248.18554
G1 X73.404 Y137.859 E248.31165
G1 X73.693 Y138.332 E248.43171
G1 X74.033 Y138.735 E248.54592
G1 X74.433 Y139.072 E248.65921
G1 X74.921 Y139.371 E248.78317
G1 X75.442 Y139.585 E248.90517
G1 X75.941 Y139.706 E249.01638
G1 X76.577 Y139.76 E249.15464
G1 X146.415 Y139.76 E264.28155
G1 X147.06 Y139.706 E264.42174
G1 X147.554 Y139.589 E264.5317
G1 X148.075 Y139.372 E264.65395
G1 X148.559 Y139.076 E264.77684
G1 X148.959 Y138.735 E264.89069
G1 X149.299 Y138.335 E265.0044
G1 X149.596 Y137.847 E265.12813
G1 X149.907 Y137.107 E265.302
G1 X149.984 Y136.191 E265.5011
G1 X149.989 Y131.089 E266.6062
G1 X150.131 Y130.543 E266.72839
G1 X150.672 Y129.852 E266.91848
G1 X150.425 Y129.788 E266.97375
G1 X72.56 Y129.785 E283.83931
G1 X72.151 Y129.859 E283.92933
G10
G0 F7200 X71.74 Y129.53
G0 X135.91 Y129.468
G0 X136.161 Y131.503
G0 X135.816 Y137.395
G11
G1 F1200 X134.639 Y136.801 E284.2149
G1 X133.704 Y135.835 E284.50609
G1 X133.379 Y134.566 E284.78983
G1 X133.456 Y133.488 E285.02392
G1 X133.886 Y132.544 E285.2486
G1 X134.625 Y131.751 E285.48339
G1 X135.585 Y131.269 E285.71606
G1 X136.642 Y131.141 E285.94668
G1 X137.599 Y131.346 E286.15867
G1 X138.184 Y131.636 E286.30009
G1 X138.937 Y132.296 E286.51698
G1 X139.592 Y133.465 E286.80722
G1 X139.581 Y135.074 E287.15574
G1 X138.942 Y136.243 E287.4443
G1 X138.141 Y136.943 E287.67471
G1 X137.169 Y137.335 E287.90173
G1 X135.816 Y137.395 E288.19507
G10
G0 F7200 X135.908 Y136.997
G0 X137.749 Y136.306
G0 X138.755 Y135.058
G0 X139.274 Y133.725
G0 X150.284 Y133.725
G0 X149.913 Y130.397
G11
G1 F1200 X149.604 Y130.088 E288.28973
G0 F7200 X148.755 Y130.088
G1 F1200 X149.704 Y131.037 E288.58042
G0 F7200 X149.684 Y131.865
G1 F1200 X147.907 Y130.088 E289.12475
G0 F7200 X147.058 Y130.088
G1 F1200 X149.684 Y132.713 E289.92899
G0 F7200 X149.684 Y133.562
G1 F1200 X146.21 Y130.088 E290.99314
G0 F7200 X145.361 Y130.088
G1 F1200 X149.684 Y134.41 E292.3172
G0 F7200 X149.684 Y135.259
G1 F1200 X144.513 Y130.088 E293.90118
G0 F7200 X143.664 Y130.088
G1 F1200 X149.684 Y136.107 E295.74506
G0 F7200 X149.625 Y136.897
G1 F1200 X142.816 Y130.088 E297.83079
G0 F7200 X141.967 Y130.088
G1 F1200 X149.406 Y137.527 E300.10949
G0 F7200 X149.106 Y138.075
G1 F1200 X141.119 Y130.088 E302.55606
G0 F7200 X140.27 Y130.088
G1 F1200 X148.727 Y138.545 E305.1466
G0 F7200 X148.247 Y138.913
G1 F1200 X139.422 Y130.088 E307.84986
G0 F7200 X138.573 Y130.088
G1 F1200 X147.691 Y139.206 E310.64287
G0 F7200 X147.044 Y139.407
G1 F1200 X137.725 Y130.088 E313.49745
G0 F7200 X136.876 Y130.088
G1 F1200 X137.996 Y131.208 E313.84053
G1 X138.102 Y131.314
G0 F7200 X137.811 Y131.898
G0 X136.665 Y131.555
G0 X136.811 Y130.871
G1 F1200 X136.028 Y130.088 E314.08038
G0 F7200 X136.008 Y130.917
G1 F1200 X135.179 Y130.088 E314.33432
G0 F7200 X134.33 Y130.088
G1 F1200 X135.312 Y131.069 E314.63497
G0 F7200 X134.747 Y131.353
G1 F1200 X133.482 Y130.088 E315.02246
G0 F7200 X132.633 Y130.088
G1 F1200 X134.254 Y131.709 E315.519
G0 F7200 X133.845 Y132.148
G1 F1200 X131.785 Y130.088 E316.15002
G0 F7200 X130.936 Y130.088
G1 F1200 X133.505 Y132.657 E316.93695
G0 F7200 X133.24 Y133.24
G1 F1200 X130.087 Y130.087 E317.90278
G0 F7200 X129.239 Y130.087
G1 F1200 X133.121 Y133.97 E319.09206
G0 F7200 X133.137 Y134.834
G1 F1200 X128.39 Y130.087 E320.54615
G0 F7200 X127.542 Y130.087
G1 F1200 X133.43 Y135.976 E322.34991
G1 X133.536 Y136.082
G0 F7200 X134.163 Y135.739
G0 X134.544 Y137.09
G1 F1200 X136.915 Y139.461 E323.07619
G0 F7200 X137.763 Y139.461
G1 F1200 X135.991 Y137.688 E323.61914
G0 F7200 X136.801 Y137.65
G1 F1200 X138.612 Y139.461 E324.17389
G0 F7200 X139.461 Y139.461
G1 F1200 X137.517 Y137.517 E324.76937
G0 F7200 X138.123 Y137.274
G1 F1200 X140.309 Y139.461 E325.43913
G0 F7200 X141.158 Y139.461
G1 F1200 X138.621 Y136.923 E326.21642
G0 F7200 X139.074 Y136.528
G1 F1200 X142.006 Y139.461 E327.1147
G0 F7200 X142.855 Y139.461
G1 F1200 X139.41 Y136.016 E328.16997
G0 F7200 X139.711 Y135.468
G1 F1200 X143.703 Y139.461 E329.39294
G0 F7200 X144.552 Y139.461
G1 F1200 X139.881 Y134.789 E330.82391
G0 F7200 X139.888 Y133.949
G1 F1200 X145.4 Y139.461 E332.51234
G0 F7200 X146.249 Y139.461
G1 F1200 X139.533 Y132.744 E334.56973
G1 X139.427 Y132.638
G10
G0 F7200 X138.85 Y132.959
G0 X138.848 Y134.891
G0 X137.81 Y136.253
G0 X135.94 Y137.091
G0 X135.94 Y140.06
G0 X136.066 Y139.461
G11
G1 F1200 X126.693 Y130.087 E337.44101
G0 F7200 X125.845 Y130.087
G1 F1200 X135.218 Y139.461 E340.31228
G0 F7200 X134.369 Y139.461
G1 F1200 X124.996 Y130.087 E343.18356
G0 F7200 X124.147 Y130.087
G1 F1200 X133.521 Y139.461 E346.05499
G0 F7200 X132.672 Y139.461
G1 F1200 X123.299 Y130.087 E348.92627
G0 F7200 X122.45 Y130.087
G1 F1200 X131.824 Y139.461 E351.7977
G0 F7200 X130.975 Y139.461
G1 F1200 X121.602 Y130.087 E354.66898
G0 F7200 X120.753 Y130.087
G1 F1200 X130.127 Y139.461 E357.54041
G0 F7200 X129.278 Y139.461
G1 F1200 X119.905 Y130.087 E360.41169
G0 F7200 X119.056 Y130.087
G1 F1200 X128.43 Y139.461 E363.28312
G0 F7200 X127.581 Y139.461
G1 F1200 X118.208 Y130.087 E366.1544
G0 F7200 X117.359 Y130.087
G1 F1200 X126.733 Y139.461 E369.02583
G0 F7200 X125.884 Y139.461
G1 F1200 X116.511 Y130.087 E371.89711
G0 F7200 X115.662 Y130.087
G1 F1200 X125.036 Y139.461 E374.76854
G0 F7200 X124.187 Y139.461
G1 F1200 X114.814 Y130.087 E377.63982
G0 F7200 X113.965 Y130.087
G1 F1200 X123.339 Y139.461 E380.51125
G0 F7200 X122.49 Y139.461
G1 F1200 X113.117 Y130.087 E383.38252
G0 F7200 X112.268 Y130.087
G1 F1200 X121.641 Y139.461 E386.2538
G0 F7200 X120.793 Y139.461
G1 F1200 X111.419 Y130.086 E389.12539
G0 F7200 X110.57 Y130.086
G1 F1200 X119.944 Y139.461 E391.99697
G0 F7200 X119.096 Y139.461
G1 F1200 X109.722 Y130.086 E394.86856
G0 F7200 X108.873 Y130.086
G1 F1200 X118.247 Y139.461 E397.74014
G0 F7200 X117.399 Y139.461
G1 F1200 X108.025 Y130.086 E400.61172
G0 F7200 X107.176 Y130.086
G1 F1200 X116.55 Y139.461 E403.48331
G0 F7200 X115.702 Y139.461
G1 F1200 X106.328 Y130.086 E406.35489
G0 F7200 X105.479 Y130.086
G1 F1200 X114.853 Y139.461 E409.22648
G0 F7200 X114.005 Y139.461
G1 F1200 X104.631 Y130.086 E412.09806
G0 F7200 X103.782 Y130.086
G1 F1200 X113.156 Y139.461 E414.96965
