;FLAVOR:UltiGCode
;TIME:19888
;MATERIAL:48713
;MATERIAL2:0
;NOZZLE_DIAMETER:0.6
;MINX:51.215
;MINY:100.215
;MINZ:0.4
;MAXX:171.785
;MAXY:122.785
;MAXZ:119.95
;TARGET_MACHINE.NAME:Ultimaker 2+
;Generated with Cura_SteamEngine 5.8.1
M82 ;absolute extrusion mode
G0 F3000 Y50 ;avoid prime blob
G92 E0
G92 E0
G10
;LAYER_COUNT:798
;LAYER:0
M107
G0 F7200 X53.038 Y100.577 Z0.4
;TYPE:SKIRT
G11
G1 F1800 X53.513 Y100.383 E0.12314
G1 X54.013 Y100.264 E0.24649
G1 X54.529 Y100.216 E0.37087
G1 X167.825 Y100.215 E27.56191
G1 X168.523 Y100.225 E27.72945
G1 X169.035 Y100.273 E27.85286
G1 X169.532 Y100.399 E27.97592
G1 X170.004 Y100.6 E28.09904
G1 X170.44 Y100.873 E28.2225
G1 X170.827 Y101.209 E28.3455
G1 X171.158 Y101.602 E28.46882
G1 X171.424 Y102.041 E28.59201
G1 X171.618 Y102.517 E28.71538
G1 X171.737 Y103.016 E28.83849
G1 X171.784 Y103.53 E28.96237
G1 X171.785 Y118.79 E32.62477
G1 X171.776 Y119.517 E32.79926
G1 X171.729 Y120.028 E32.92242
G1 X171.604 Y120.526 E33.04565
G1 X171.404 Y120.999 E33.1689
G1 X171.132 Y121.434 E33.29203
G1 X170.796 Y121.823 E33.41539
G1 X170.404 Y122.154 E33.53853
G1 X169.965 Y122.421 E33.66184
G1 X169.491 Y122.616 E33.78485
G1 X168.991 Y122.736 E33.90826
G1 X168.472 Y122.784 E34.03335
G1 X166.17 Y122.785 E34.58583
G1 X165.467 Y122.774 E34.75457
G1 X164.956 Y122.726 E34.87775
G1 X164.459 Y122.599 E35.00087
G1 X163.96 Y122.382 E35.13146
G1 X163.261 Y122.007 E35.32184
G1 X162.145 Y121.385 E35.62847
G1 X159.675 Y120.098 E36.29691
G1 X157.243 Y118.916 E36.94588
G1 X154.746 Y117.79 E37.60327
G1 X152.223 Y116.736 E38.25951
G1 X149.649 Y115.746 E38.92138
G1 X147.08 Y114.841 E39.57508
G1 X144.477 Y114.005 E40.23123
G1 X141.858 Y113.245 E40.88572
G1 X139.217 Y112.559 E41.54059
G1 X136.546 Y111.945 E42.19835
G1 X133.846 Y111.405 E42.85919
G1 X131.15 Y110.944 E43.51562
G1 X128.471 Y110.564 E44.16501
G1 X125.738 Y110.255 E44.82511
G1 X123.032 Y110.025 E45.47689
G1 X120.283 Y109.87 E46.1377
G1 X116.203 Y109.785 E47.11712
G1 X106.82 Y109.785 E49.36904
G1 X104.026 Y109.825 E50.03966
G1 X101.315 Y109.94 E50.69089
G1 X98.574 Y110.134 E51.35037
G1 X95.841 Y110.405 E52.00951
G1 X93.152 Y110.749 E52.66013
G1 X90.429 Y111.177 E53.32167
G1 X87.779 Y111.669 E53.96854
G1 X85.105 Y112.243 E54.62492
G1 X82.411 Y112.905 E55.29072
G1 X79.768 Y113.632 E55.9486
G1 X77.191 Y114.421 E56.59541
G1 X74.571 Y115.305 E57.25904
G1 X72.009 Y116.25 E57.91442
G1 X69.473 Y117.268 E58.57026
G1 X66.993 Y118.347 E59.21936
G1 X64.487 Y119.523 E59.88373
G1 X62.03 Y120.759 E60.54382
G1 X59.56 Y122.094 E61.21766
G1 X59.096 Y122.354 E61.34532
G1 X58.63 Y122.569 E61.46848
G1 X58.136 Y122.71 E61.59178
G1 X57.479 Y122.785 E61.75048
G1 X55.179 Y122.785 E62.30248
G1 X54.481 Y122.776 E62.47002
G1 X53.97 Y122.729 E62.59318
G1 X53.472 Y122.604 E62.7164
G1 X53 Y122.403 E62.83953
G1 X52.564 Y122.131 E62.96286
G1 X52.176 Y121.795 E63.08604
G1 X51.845 Y121.403 E63.20918
G1 X51.578 Y120.964 E63.33249
G1 X51.383 Y120.489 E63.45573
G1 X51.264 Y119.99 E63.57884
G1 X51.216 Y119.467 E63.70489
G1 X51.215 Y104.144 E67.38241
G1 X51.224 Y103.479 E67.54203
G1 X51.271 Y102.968 E67.66518
G1 X51.397 Y102.47 E67.78847
G1 X51.598 Y101.998 E67.91159
G1 X51.87 Y101.563 E68.03472
G1 X52.207 Y101.175 E68.15806
G1 X52.599 Y100.844 E68.2812
G1 X53.038 Y100.577 E68.40451
G10
;MESH:Part_Down_v3.STL
G0 F7200 X55.255 Y102.814
G0 X55.255 Y104.255
G0 X131.076 Y104.835
G0 X165.638 Y105.155
G0 X161.515 Y105.166
G0 X165.543 Y105.2
G0 X165.845 Y106.151
;TYPE:WALL-OUTER
G11
G1 F1500 X165.932 Y106.364 E68.46525
G1 X165.932 Y119.064 E71.81805
G1 X168.064 Y119.064 E72.3809
G1 X168.064 Y103.932 E76.37575
G1 X54.932 Y103.932 E106.2426
G1 X54.932 Y119.064 E110.23745
G1 X57.064 Y119.064 E110.80029
G1 X57.064 Y106.364 E114.15309
G1 X57.151 Y106.151 E114.21384
G1 X57.312 Y106.068 E114.26166
G1 X165.632 Y106.064 E142.85814
G1 X165.845 Y106.151 E142.91888
G0 F7200 X165.932 Y106.364
G0 X165.932 Y106.434
G0 X166.867 Y106.475
G0 X167.095 Y118.095
G0 X167.381 Y118.381
;TYPE:WALL-INNER
G1 F1370.9 X167.381 Y106.364 E146.41679
G1 F1559.4 X167.464 Y105.232 E146.71137
G1 F1800 X167.464 Y104.532 E146.87097
G1 X166.764 Y104.532 E147.03057
G1 F1559.4 X165.632 Y104.615 E147.32516
G1 F1368.9 X147.548 Y104.615 E152.59592
G1 F1364.9 X129.464 Y104.616 E157.88043
G1 F1360.9 X111.38 Y104.617 E163.17868
G1 F1358.9 X93.296 Y104.618 E168.4838
G1 F1354.9 X75.212 Y104.619 E173.80267
G1 F1350.9 X57.128 Y104.619 E179.13528
G1 F1546.7 X56.232 Y104.532 E179.37063
G1 F1800 X55.532 Y104.532 E179.53023
G1 X55.532 Y105.232 E179.68983
G1 F1559.4 X55.615 Y106.364 E179.98442
G1 F1370.9 X55.615 Y118.381 E183.48233
G1 X56.381 Y118.381 E183.7053
G1 X56.381 Y106.364 E187.2032
G1 F1559.4 X56.727 Y105.727 E187.39135
G1 F1551.8 X57.207 Y105.381 E187.54559
G1 F1362.9 X93.349 Y105.381 E198.12074
G1 F1366.9 X129.491 Y105.381 E208.66842
G1 F1368.9 X165.633 Y105.381 E219.20237
G1 F1559.4 X166.269 Y105.727 E219.39028
G1 X166.615 Y106.364 E219.57842
G1 F1370.9 X166.615 Y118.381 E223.07633
G1 X167.381 Y118.381 E223.2993
G0 F7200 X167.095 Y118.095
G0 X167.159 Y106.154
G0 X166.915 Y105.962
;TYPE:SKIN
G1 F1406 X167.07 Y104.925 E223.49575
G1 X166.034 Y105.08 E223.69201
G1 X166.582 Y105.412 E223.81206
G1 X166.915 Y105.962 E223.93252
G10
G0 F7200 X167.248 Y106.167
G0 X56.737 Y105.737
G0 X55.904 Y106.5
G0 X56.078 Y105.963
G11
G1 F1411.9 X56.418 Y105.416 E224.05273
G1 X56.813 Y105.086 E224.14879
G1 X55.924 Y104.913 E224.31782
G1 X56.078 Y105.963 E224.51589
G10
;MESH:NONMESH
G0 F600 X56.078 Y105.963 Z0.55
G0 F7200 X55.751 Y106.189
G0 X55.249 Y104.249
G0 X55.249 Y102.814
G0 X53.038 Y100.577
;TIME_ELAPSED:40.234703
;LAYER:1
M106 S255
;TYPE:SKIRT
G11
G1 F1800 X53.513 Y100.383 E224.56207
G1 X54.013 Y100.264 E224.60832
G1 X54.529 Y100.216 E224.65496
G1 X167.825 Y100.215 E234.8516
G1 X168.523 Y100.225 E234.91443
G1 X169.035 Y100.273 E234.96071
G1 X169.532 Y100.399 E235.00686
G1 X170.004 Y100.6 E235.05303
G1 X170.44 Y100.873 E235.09933
G1 X170.827 Y101.209 E235.14545
G1 X171.158 Y101.602 E235.1917
G1 X171.424 Y102.041 E235.23789
G1 X171.618 Y102.517 E235.28415
G1 X171.737 Y103.016 E235.33032
G1 X171.784 Y103.53 E235.37678
G1 X171.785 Y118.79 E236.75018
G1 X171.776 Y119.517 E236.81561
G1 X171.729 Y120.028 E236.8618
G1 X171.604 Y120.526 E236.90801
G1 X171.404 Y120.999 E236.95423
G1 X171.132 Y121.434 E237.0004
G1 X170.796 Y121.823 E237.04666
G1 X170.404 Y122.154 E237.09284
G1 X169.965 Y122.421 E237.13908
G1 X169.491 Y122.616 E237.18521
G1 X168.991 Y122.736 E237.23149
G1 X168.472 Y122.784 E237.2784
G1 X166.17 Y122.785 E237.48558
G1 X165.467 Y122.774 E237.54885
G1 X164.956 Y122.726 E237.59505
G1 X164.459 Y122.599 E237.64121
G1 X163.96 Y122.382 E237.69019
G1 X163.261 Y122.007 E237.76158
G1 X162.145 Y121.385 E237.87656
G1 X159.675 Y120.098 E238.12723
G1 X157.243 Y118.916 E238.37059
G1 X154.746 Y117.79 E238.61712
G1 X152.223 Y116.736 E238.8632
G1 X149.649 Y115.746 E239.11141
G1 X147.08 Y114.841 E239.35654
G1 X144.477 Y114.005 E239.6026
G1 X141.858 Y113.245 E239.84803
G1 X139.217 Y112.559 E240.09361
G1 X136.546 Y111.945 E240.34027
G1 X133.846 Y111.405 E240.58808
G1 X131.15 Y110.944 E240.83425
G1 X128.471 Y110.564 E241.07777
G1 X125.738 Y110.255 E241.32531
G1 X123.032 Y110.025 E241.56972
G1 X120.283 Y109.87 E241.81753
G1 X116.203 Y109.785 E242.18481
G1 X106.82 Y109.785 E243.02928
G1 X104.026 Y109.825 E243.28076
G1 X101.315 Y109.94 E243.52497
G1 X98.574 Y110.134 E243.77228
G1 X95.841 Y110.405 E244.01946
G1 X93.152 Y110.749 E244.26344
G1 X90.429 Y111.177 E244.51152
G1 X87.779 Y111.669 E244.75409
G1 X85.105 Y112.243 E245.00023
G1 X82.411 Y112.905 E245.24991
G1 X79.768 Y113.632 E245.49661
G1 X77.191 Y114.421 E245.73917
G1 X74.571 Y115.305 E245.98803
G1 X72.009 Y116.25 E246.2338
G1 X69.473 Y117.268 E246.47974
G1 X66.993 Y118.347 E246.72315
G1 X64.487 Y119.523 E246.97229
G1 X62.03 Y120.759 E247.21982
G1 X59.56 Y122.094 E247.47251
G1 X59.096 Y122.354 E247.52038
G1 X58.63 Y122.569 E247.56657
G1 X58.136 Y122.71 E247.61281
G1 X57.479 Y122.785 E247.67232
G1 X55.179 Y122.785 E247.87932
G1 X54.481 Y122.776 E247.94215
G1 X53.97 Y122.729 E247.98833
G1 X53.472 Y122.604 E248.03454
G1 X53 Y122.403 E248.08071
G1 X52.564 Y122.131 E248.12696
G1 X52.176 Y121.795 E248.17315
G1 X51.845 Y121.403 E248.21933
G1 X51.578 Y120.964 E248.26557
G1 X51.383 Y120.489 E248.31179
G1 X51.264 Y119.99 E248.35796
G1 X51.216 Y119.467 E248.40522
G1 X51.215 Y104.144 E249.78429
G1 X51.224 Y103.479 E249.84415
G1 X51.271 Y102.968 E249.89033
G1 X51.397 Y102.47 E249.93656
G1 X51.598 Y101.998 E249.98274
G1 X51.87 Y101.563 E250.02891
G1 X52.207 Y101.175 E250.07516
G1 X52.599 Y100.844 E250.12134
G1 X53.038 Y100.577 E250.16758
G10
;MESH:Part_Down_v3.STL
G0 F7200 X55.129 Y102.694
G0 X55.129 Y104.129
G0 X56.185 Y106.399
G0 X57.184 Y106.399
;TYPE:WALL-OUTER
G11
G1 F1500 X57.432 Y106.188 E250.19689
G1 X165.608 Y106.184 E259.93273
G1 X165.812 Y106.388 E259.95869
G1 X165.812 Y119.184 E261.11033
G1 X168.184 Y119.184 E261.32381
G1 X168.184 Y103.812 E262.70729
G1 X54.812 Y103.812 E272.91077
G1 X54.812 Y119.184 E274.29425
G1 X57.184 Y119.184 E274.50773
G1 X57.184 Y106.399 E275.65838
G0 F7200 X57.412 Y106.205
G10
G0 X57.412 Y105.185
G0 X166.743 Y105.257
G0 X167.215 Y118.215
G0 X167.441 Y118.441
;TYPE:WALL-INNER
G11
G1 F1354.3 X167.441 Y106.484 E277.24747
G1 F1655.4 X167.584 Y105.868 E277.31795
G1 F2100 X167.584 Y104.412 E277.44899
G1 X166.128 Y104.411 E277.58003
G1 F1655.4 X165.512 Y104.555 E277.65053
G1 F1354.3 X57.363 Y104.559 E292.02353
G1 F1655.4 X56.772 Y104.421 E292.09117
G1 F2100 X55.412 Y104.412 E292.21357
G1 X55.411 Y105.868 E292.34461
G1 F1655.4 X55.555 Y106.484 E292.41512
G1 F1354.3 X55.555 Y118.441 E294.0042
G1 X56.441 Y118.441 E294.12195
G1 X56.441 Y106.484 E295.71104
G1 F1655.4 X56.658 Y106.126 E295.75769
G1 F2100 X56.847 Y105.847 E295.78802
G1 F1852.5 X57.36 Y105.444 E295.85378
G1 F1652.9 X58.747 Y105.444 E296.00857
G1 F1647.9 X60.134 Y105.444 E296.16378
G1 F1642.9 X61.521 Y105.444 E296.3194
G1 F1640.5 X62.908 Y105.444 E296.47523
G1 F1635.5 X64.295 Y105.444 E296.63147
G1 F1630.6 X65.682 Y105.444 E296.78813
G1 F1625.8 X67.069 Y105.444 E296.94521
G1 F1620.9 X68.456 Y105.444 E297.10271
G1 F1616.1 X69.843 Y105.444 E297.26062
G1 F1613.7 X71.23 Y105.444 E297.41873
G1 F1608.9 X72.617 Y105.444 E297.57727
G1 F1604.1 X74.004 Y105.444 E297.73622
G1 F1599.4 X75.391 Y105.444 E297.89558
G1 F1594.7 X76.778 Y105.444 E298.05537
G1 F1590 X78.165 Y105.444 E298.21556
G1 F1587.7 X79.552 Y105.444 E298.37597
G1 F1583 X80.939 Y105.444 E298.53679
G1 F1578.4 X82.326 Y105.444 E298.69803
G1 F1573.8 X83.713 Y105.444 E298.85969
G1 F1569.2 X85.1 Y105.444 E299.02176
G1 F1564.6 X86.487 Y105.444 E299.18425
G1 F1562.4 X87.874 Y105.444 E299.34694
G1 F1557.9 X89.261 Y105.444 E299.51005
G1 F1553.4 X90.648 Y105.444 E299.67358
G1 F1548.9 X92.035 Y105.444 E299.83752
G1 F1544.4 X93.422 Y105.443 E300.00188
G1 F1540 X94.809 Y105.443 E300.16666
G1 F1537.8 X96.196 Y105.443 E300.33164
G1 F1533.4 X97.583 Y105.443 E300.49704
G1 F1529 X98.97 Y105.443 E300.66286
G1 F1524.7 X100.357 Y105.443 E300.82909
G1 F1520.3 X101.744 Y105.443 E300.99574
G1 F1516 X103.131 Y105.443 E301.1628
G1 F1513.9 X104.518 Y105.443 E301.33007
G1 F1509.6 X105.905 Y105.443 E301.49776
G1 F1505.3 X107.292 Y105.443 E301.66587
G1 F1501.1 X108.679 Y105.443 E301.83439
G1 F1496.9 X110.066 Y105.443 E302.00332
G1 F1492.7 X111.453 Y105.443 E302.17268
G1 F1490.6 X112.84 Y105.443 E302.34224
G1 F1486.5 X114.227 Y105.443 E302.51221
G1 F1482.3 X115.614 Y105.443 E302.68261
G1 F1478.2 X117.001 Y105.443 E302.85342
G1 F1474.1 X118.388 Y105.443 E303.02464
G1 F1470 X119.775 Y105.443 E303.19628
G1 F1468 X121.162 Y105.443 E303.36813
G1 F1463.9 X122.549 Y105.443 E303.5404
G1 F1459.9 X123.936 Y105.443 E303.71308
G1 F1455.9 X125.323 Y105.443 E303.88618
G1 F1451.9 X126.71 Y105.443 E304.05969
G1 F1447.9 X128.097 Y105.443 E304.23362
G1 F1445.9 X129.484 Y105.442 E304.40776
G1 F1442 X130.871 Y105.442 E304.58231
G1 F1438 X132.258 Y105.442 E304.75728
G1 F1434.1 X133.645 Y105.442 E304.93267
G1 F1430.2 X135.032 Y105.442 E305.10847
G1 F1426.4 X136.419 Y105.442 E305.28469
G1 F1424.4 X137.806 Y105.442 E305.46111
G1 F1420.6 X139.193 Y105.442 E305.63796
G1 F1416.8 X140.58 Y105.442 E305.81522
G1 F1413 X141.967 Y105.442 E305.99289
G1 F1409.2 X143.354 Y105.442 E306.17098
G1 F1405.4 X144.741 Y105.442 E306.34949
G1 F1403.5 X146.128 Y105.442 E306.5282
G1 F1399.8 X147.515 Y105.442 E306.70733
G1 F1396 X148.902 Y105.442 E306.88688
G1 F1392.3 X150.289 Y105.442 E307.06684
G1 F1388.6 X151.676 Y105.442 E307.24722
G1 F1384.9 X153.063 Y105.442 E307.42802
G1 F1383.1 X154.45 Y105.442 E307.60902
G1 F1379.4 X155.837 Y105.442 E307.79044
G1 F1375.8 X157.224 Y105.442 E307.97228
G1 F1372.2 X158.611 Y105.442 E308.15453
G1 F1368.6 X159.998 Y105.442 E308.3372
G1 F1365 X161.385 Y105.442 E308.52028
G1 F1363.2 X162.772 Y105.442 E308.70357
G1 F1359.6 X164.159 Y105.442 E308.88728
G1 F1356.1 X165.546 Y105.441 E309.07141
G1 F1655.4 X165.87 Y105.658 E309.11487
G1 F2100 X166.149 Y105.847 E309.1452
G1 X166.339 Y106.126 E309.17557
G1 F1655.4 X166.555 Y106.484 E309.22217
G1 F1354.3 X166.555 Y118.441 E310.81126
G1 X167.441 Y118.441 E310.92901
G0 F7200 X167.215 Y118.215
G0 X166.95 Y106.086
;TYPE:SKIN
G1 F1078.2 X167.074 Y105.822 E310.95648
G1 X167.074 Y104.922 E311.04126
G1 X166.17 Y104.921 E311.12641
G1 X165.903 Y105.045 E311.15413
G1 X166.508 Y105.483 E311.22449
G1 X166.95 Y106.086 E311.29491
G10
G0 F7200 X56.257 Y105.257
G0 X56.044 Y106.089
G11
G1 F1076.4 X56.485 Y105.486 E311.36538
G1 X56.996 Y105.064 E311.4279
G1 X56.723 Y104.935 E311.45639
G1 X55.923 Y104.924 E311.53186
G1 X55.919 Y105.822 E311.61657
G1 X56.044 Y106.089 E311.64439
G10
;MESH:NONMESH
G0 F600 X56.044 Y106.089 Z0.7
G0 F7200 X55.129 Y104.129
G0 X55.129 Y102.694
G0 X53.038 Y100.577
;TIME_ELAPSED:77.181784
;LAYER:2
;TYPE:SKIRT
G11
G1 F1800 X53.513 Y100.383 E311.69056
G1 X54.013 Y100.264 E311.73682
G1 X54.529 Y100.216 E311.78346
G1 X167.825 Y100.215 E321.9801
G1 X168.523 Y100.225 E322.04293
G1 X169.035 Y100.273 E322.08921
G1 X169.532 Y100.399 E322.13535
G1 X170.004 Y100.6 E322.18153
G1 X170.44 Y100.873 E322.22782
G1 X170.827 Y101.209 E322.27395
G1 X171.158 Y101.602 E322.32019
G1 X171.424 Y102.041 E322.36639
G1 X171.618 Y102.517 E322.41265
G1 X171.737 Y103.016 E322.45882
G1 X171.784 Y103.53 E322.50527
G1 X171.785 Y118.79 E323.87867
G1 X171.776 Y119.517 E323.94411
G1 X171.729 Y120.028 E323.99029
G1 X171.604 Y120.526 E324.0365
G1 X171.404 Y120.999 E324.08272
G1 X171.132 Y121.434 E324.1289
G1 X170.796 Y121.823 E324.17516
G1 X170.404 Y122.154 E324.22133
G1 X169.965 Y122.421 E324.26758
G1 X169.491 Y122.616 E324.3137
G1 X168.991 Y122.736 E324.35998
G1 X168.472 Y122.784 E324.40689
G1 X166.17 Y122.785 E324.61407
G1 X165.467 Y122.774 E324.67735
G1 X164.956 Y122.726 E324.72354
G1 X164.459 Y122.599 E324.76971
G1 X163.96 Y122.382 E324.81868
G1 X163.261 Y122.007 E324.89007
G1 X162.145 Y121.385 E325.00506
G1 X159.675 Y120.098 E325.25573
G1 X157.243 Y118.916 E325.49909
G1 X154.746 Y117.79 E325.74561
G1 X152.223 Y116.736 E325.9917
G1 X149.649 Y115.746 E326.2399
G1 X147.08 Y114.841 E326.48504
G1 X144.477 Y114.005 E326.7311
G1 X141.858 Y113.245 E326.97653
G1 X139.217 Y112.559 E327.22211
G1 X136.546 Y111.945 E327.46877
G1 X133.846 Y111.405 E327.71658
G1 X131.15 Y110.944 E327.96274
G1 X128.471 Y110.564 E328.20627
G1 X125.738 Y110.255 E328.4538
G1 X123.032 Y110.025 E328.69822
G1 X120.283 Y109.87 E328.94602
G1 X116.203 Y109.785 E329.3133
G1 X106.82 Y109.785 E330.15777
G1 X104.026 Y109.825 E330.40926
G1 X101.315 Y109.94 E330.65347
G1 X98.574 Y110.134 E330.90078
G1 X95.841 Y110.405 E331.14795
G1 X93.152 Y110.749 E331.39193
G1 X90.429 Y111.177 E331.64001
G1 X87.779 Y111.669 E331.88259
G1 X85.105 Y112.243 E332.12873
G1 X82.411 Y112.905 E332.3784
G1 X79.768 Y113.632 E332.62511
G1 X77.191 Y114.421 E332.86767
G1 X74.571 Y115.305 E333.11653
G1 X72.009 Y116.25 E333.36229
G1 X69.473 Y117.268 E333.60823
G1 X66.993 Y118.347 E333.85164
G1 X64.487 Y119.523 E334.10078
G1 X62.03 Y120.759 E334.34832
G1 X59.56 Y122.094 E334.60101
G1 X59.096 Y122.354 E334.64888
G1 X58.63 Y122.569 E334.69507
G1 X58.136 Y122.71 E334.7413
