;FLAVOR:UltiGCode
;TIME:8078
;MATERIAL:16831
;MATERIAL2:0
;NOZZLE_DIAMETER:0.6
;MINX:51.715
;MINY:111.041
;MINZ:0.4
;MAXX:171.285
;MAXY:147.211
;MAXZ:83.05
;TARGET_MACHINE.NAME:Ultimaker 2+
;Generated with Cura_SteamEngine 5.8.1
M82 ;absolute extrusion mode
G0 F3000 Y50 ;avoid prime blob
G92 E0
G92 E0
G10
;LAYER_COUNT:552
;LAYER:0
M107
G0 F7200 X53.538 Y111.403 Z0.4
;TYPE:SKIRT
G11
G1 F1800 X54.013 Y111.209 E0.12314
G1 X54.513 Y111.09 E0.24649
G1 X55.029 Y111.042 E0.37087
G1 X70.829 Y111.041 E4.16287
G1 X71.538 Y111.052 E4.33305
G1 X72.049 Y111.1 E4.45623
G1 X72.762 Y111.308 E4.63448
G1 X75.448 Y112.434 E5.33347
G1 X77.999 Y113.417 E5.9896
G1 X80.565 Y114.324 E6.64278
G1 X83.168 Y115.16 E7.29892
G1 X85.823 Y115.933 E7.96258
G1 X88.44 Y116.614 E8.61158
G1 X91.09 Y117.226 E9.26432
G1 X93.831 Y117.775 E9.93522
G1 X96.471 Y118.229 E10.57813
G1 X99.189 Y118.616 E11.23702
G1 X101.918 Y118.927 E11.89622
G1 X104.619 Y119.157 E12.54681
G1 X107.366 Y119.313 E13.20715
G1 X110.111 Y119.392 E13.86622
G1 X112.824 Y119.392 E14.51734
G1 X115.569 Y119.315 E15.1764
G1 X118.314 Y119.161 E15.83624
G1 X121.016 Y118.932 E16.48704
G1 X123.75 Y118.621 E17.14744
G1 X126.43 Y118.24 E17.7971
G1 X129.156 Y117.774 E18.46083
G1 X131.797 Y117.246 E19.10722
G1 X134.498 Y116.624 E19.77242
G1 X137.147 Y115.936 E20.42928
G1 X139.749 Y115.18 E21.07958
G1 X142.38 Y114.335 E21.74279
G1 X144.96 Y113.425 E22.39938
G1 X147.47 Y112.46 E23.04476
G1 X148.913 Y111.856 E23.4202
G1 X149.011 Y111.824 E23.44494
G1 X150.244 Y111.308 E23.76573
G1 X150.731 Y111.147 E23.88883
G1 X151.5 Y111.041 E24.07513
G1 X167.321 Y111.041 E27.87217
G1 X168.019 Y111.05 E28.03971
G1 X168.53 Y111.097 E28.16287
G1 X169.028 Y111.222 E28.28609
G1 X169.5 Y111.423 E28.40922
G1 X169.936 Y111.695 E28.53255
G1 X170.324 Y112.031 E28.65573
G1 X170.655 Y112.423 E28.77887
G1 X170.922 Y112.862 E28.90218
G1 X171.117 Y113.337 E29.02541
G1 X171.236 Y113.836 E29.14853
G1 X171.284 Y114.355 E29.27362
G1 X171.285 Y143.216 E36.20026
G1 X171.276 Y143.943 E36.37476
G1 X171.229 Y144.454 E36.49792
G1 X171.104 Y144.952 E36.62114
G1 X170.904 Y145.425 E36.74439
G1 X170.632 Y145.86 E36.86752
G1 X170.296 Y146.249 E36.99089
G1 X169.904 Y146.58 E37.11402
G1 X169.465 Y146.847 E37.23734
G1 X168.991 Y147.042 E37.36035
G1 X168.491 Y147.162 E37.48376
G1 X167.971 Y147.21 E37.60909
G1 X152.166 Y147.211 E41.40229
G1 X151.457 Y147.199 E41.57247
G1 X150.946 Y147.15 E41.69567
G1 X150.239 Y146.943 E41.87248
G1 X147.565 Y145.823 E42.56826
G1 X145.001 Y144.835 E43.22772
G1 X142.435 Y143.928 E43.8809
G1 X139.826 Y143.09 E44.53857
G1 X137.177 Y142.319 E45.20071
G1 X134.557 Y141.637 E45.85046
G1 X131.91 Y141.026 E46.50245
G1 X129.169 Y140.477 E47.17335
G1 X126.529 Y140.023 E47.81625
G1 X123.811 Y139.636 E48.47515
G1 X121.082 Y139.325 E49.13435
G1 X118.381 Y139.095 E49.78494
G1 X115.634 Y138.939 E50.44528
G1 X112.889 Y138.86 E51.10435
G1 X110.176 Y138.86 E51.75547
G1 X107.431 Y138.937 E52.41453
G1 X104.686 Y139.091 E53.07437
G1 X101.984 Y139.32 E53.72517
G1 X99.25 Y139.631 E54.38556
G1 X96.57 Y140.012 E55.03523
G1 X93.844 Y140.478 E55.69896
G1 X91.203 Y141.006 E56.34535
G1 X88.502 Y141.628 E57.01055
G1 X85.853 Y142.316 E57.6674
G1 X83.251 Y143.072 E58.31771
G1 X80.62 Y143.917 E58.98092
G1 X78.04 Y144.827 E59.6375
G1 X75.53 Y145.792 E60.28289
G1 X74.087 Y146.396 E60.65833
G1 X73.989 Y146.428 E60.68307
G1 X72.756 Y146.944 E61.00386
G1 X72.269 Y147.105 E61.12696
G1 X71.5 Y147.211 E61.31326
G1 X55.679 Y147.211 E65.1103
G1 X54.981 Y147.202 E65.27784
G1 X54.47 Y147.155 E65.40099
G1 X53.972 Y147.03 E65.52422
G1 X53.5 Y146.829 E65.64735
G1 X53.064 Y146.557 E65.77068
G1 X52.676 Y146.221 E65.89386
G1 X52.345 Y145.829 E66.01699
G1 X52.078 Y145.39 E66.14031
G1 X51.883 Y144.915 E66.26354
G1 X51.764 Y144.416 E66.38666
G1 X51.716 Y143.893 E66.51271
G1 X51.715 Y114.97 E73.45423
G1 X51.724 Y114.305 E73.61384
G1 X51.771 Y113.794 E73.737
G1 X51.897 Y113.296 E73.86029
G1 X52.098 Y112.824 E73.98341
G1 X52.37 Y112.389 E74.10654
G1 X52.707 Y112.001 E74.22988
G1 X53.099 Y111.67 E74.35301
G1 X53.538 Y111.403 E74.47633
G10
;MESH:Part_Camera_JLab_Housing.STL
G0 F7200 X59.932 Y117.547
G0 X62.895 Y118.786
;TYPE:WALL-OUTER
G11
G1 F1500 X62.896 Y119.51 E74.66747
G1 X62.363 Y120.304 E74.91993
G1 X61.453 Y120.578 E75.17083
G1 X60.714 Y120.345 E75.37539
G1 X60.134 Y119.628 E75.61886
G1 X60.066 Y118.858 E75.82293
G1 X60.533 Y118.03 E76.07389
G1 X61.373 Y117.688 E76.31333
G1 X61.986 Y117.769 E76.47656
G1 X62.664 Y118.275 E76.69991
G1 X62.895 Y118.786 E76.84796
G0 F7200 X62.895 Y119.086
G10
G0 X63.303 Y119.086
G0 X62.648 Y120.492
G0 X61.699 Y121.296
G0 X62.313 Y137.063
G0 X62.894 Y138.78
G11
G1 F1500 X62.896 Y139.518 E77.04279
G1 X62.37 Y140.3 E77.29159
G1 X61.452 Y140.577 E77.54474
G1 X60.719 Y140.352 E77.74716
G1 X60.133 Y139.62 E77.99471
G1 X60.066 Y138.858 E78.19665
G1 X60.533 Y138.028 E78.44807
G1 X61.417 Y137.675 E78.69937
G1 X62.015 Y137.794 E78.86034
G1 X62.652 Y138.27 E79.07027
G1 X62.894 Y138.78 E79.2193
G0 F7200 X62.894 Y139.08
G10
G0 X63.303 Y139.08
G0 X63.565 Y142.727
G0 X71.064 Y143.488
G11
G1 F1500 X71.064 Y114.761 E86.80323
G1 X55.432 Y114.76 E90.93007
G1 X55.433 Y143.487 E98.514
G1 X71.064 Y143.488 E102.64059
G0 F7200 X71.064 Y143.188
G0 X70.464 Y142.888
;TYPE:WALL-INNER
G1 F1800 X70.464 Y115.361 E108.91674
G1 X56.032 Y115.36 E112.20724
G1 X56.033 Y142.887 E118.48339
G1 X70.464 Y142.888 E121.77366
G10
G0 F7200 X62.746 Y142.727
G0 X62.259 Y141.127
G0 X62.748 Y140.812
G11
G1 F1800 X61.645 Y141.148 E122.03656
G1 X61.191 Y141.125 E122.1402
G1 X60.368 Y140.872 E122.33651
G1 X59.662 Y139.997 E122.59285
G1 X59.537 Y139.664 E122.67395
G1 X59.472 Y138.928 E122.84241
G1 X59.587 Y138.486 E122.94654
G1 X60.035 Y137.694 E123.154
G1 X60.294 Y137.478 E123.2309
G1 X61.333 Y137.058 E123.48641
G1 X62.243 Y137.211 E123.6968
G1 X63.132 Y137.875 E123.94979
G1 X63.5 Y138.638 E124.14293
G1 X63.5 Y139.696 E124.38416
G1 X62.748 Y140.812 E124.69098
G10
G0 F7200 X63.241 Y139.615
G0 X62.981 Y138.13
G0 X61.555 Y136.924
G0 X61.236 Y121.308
G0 X60.113 Y117.553
G11
G1 F1800 X61.312 Y117.065 E124.98613
G1 X62.019 Y117.168 E125.14903
G1 X62.407 Y117.334 E125.24525
G1 X63.115 Y117.862 E125.44662
G1 X63.5 Y118.632 E125.6429
G1 X63.5 Y119.544 E125.85084
G1 X63.412 Y119.826 E125.91819
G1 X62.869 Y120.634 E126.14015
G1 X62.587 Y120.863 E126.22297
G1 X61.448 Y121.204 E126.49406
G1 X60.527 Y120.921 E126.71373
G1 X60.277 Y120.758 E126.78178
G1 X59.555 Y119.865 E127.0436
G1 X59.472 Y118.928 E127.25808
G1 X59.587 Y118.486 E127.36221
G1 X60.113 Y117.553 E127.60641
G0 F7200 X59.474 Y119.902
G0 X59.09 Y120.056
;TYPE:SKIN
G1 F1200 X58.962 Y118.61 E127.92084
G1 X59.692 Y117.317 E128.24245
G1 X60.184 Y117.009 E128.36818
G1 F1098.5 X61.244 Y116.537 E128.64045
G1 F989.2 X62.088 Y116.628 E128.85926
G1 F1072.8 X62.704 Y116.955 E129.02643
G1 F1200 X63.475 Y117.532 E129.23502
G1 X63.98 Y118.515 E129.47439
G1 X63.976 Y119.616 E129.71287
G1 X63.817 Y120.08 E129.81911
G1 X63.231 Y120.943 E130.04505
G1 X62.694 Y121.327 E130.18805
G1 X61.767 Y121.605 E130.39767
G1 X61.194 Y121.622 E130.52184
G1 X60.363 Y121.371 E130.70986
G1 X59.947 Y121.118 E130.81532
G1 X59.09 Y120.056 E131.11091
G10
G0 F7200 X59.474 Y119.902
G0 X60.162 Y120.875
G0 X61.555 Y136.924
G0 X61.444 Y141.742
G11
G1 F1151.3 X60.082 Y141.286 E131.43394
G1 F1182.6 X59.252 Y140.248 E131.72565
G1 F1200 X59.06 Y139.74 E131.84328
G1 X58.962 Y138.61 E132.08895
G1 X59.654 Y137.387 E132.39332
G1 X60.086 Y137.042 E132.51307
G1 X61.077 Y136.643 E132.74446
G1 X61.57 Y136.604 E132.85158
G1 X62.434 Y136.759 E133.04171
G1 X63.506 Y137.554 E133.33079
G1 X63.98 Y138.52 E133.56386
G1 X63.98 Y139.54 E133.78479
G1 X63.833 Y140.061 E133.90204
G1 X63.146 Y141.076 E134.16752
G1 X62.568 Y141.368 E134.30778
G1 F1165.7 X61.444 Y141.742 E134.5712
G10
G0 F7200 X61.456 Y141.294
G0 X63.567 Y139.883
G0 X63.565 Y142.727
G0 X69.984 Y142.407
G11
G1 F1200 X69.984 Y115.84 E140.32562
G1 X62.862 Y115.841 E141.86824
G1 F1072.8 X62.139 Y115.904 E142.0422
G1 F1024.5 X61.016 Y115.867 E142.3229
G1 F1141.1 X60.004 Y115.841 E142.5524
G1 F1200 X56.513 Y115.841 E143.30855
G1 X56.512 Y142.404 E149.0621
G1 X60.01 Y142.405 E149.81976
G1 F1125.3 X61.261 Y142.37 E150.1071
G1 X62.722 Y142.405 E150.44264
G1 F1200 X69.984 Y142.407 E152.01559
G0 F7200 X70.384 Y142.407
G0 X57.251 Y142.807
G0 X57.252 Y142.104
G1 F1200 X56.812 Y141.665 E152.15021
G0 F7200 X56.812 Y140.816
G1 F1200 X58.1 Y142.104 E152.54475
G0 F7200 X58.949 Y142.104
G1 F1200 X56.812 Y139.968 E153.1992
G0 F7200 X56.812 Y139.119
G1 F1200 X59.797 Y142.104 E154.11356
G0 F7200 X60.18 Y141.638
G1 F1200 X60.612 Y142.07 E154.24589
G0 F7200 X60.611 Y142.807
G0 X61.879 Y142.727
G0 X61.471 Y141.389
G0 X62.093 Y141.855
G1 F1200 X62.324 Y142.085 E154.3165
G0 F7200 X62.715 Y141.629
G1 F1200 X63.192 Y142.105 E154.46246
G0 F7200 X63.28 Y141.344
G1 F1200 X64.041 Y142.105 E154.69557
G0 F7200 X64.889 Y142.105
G1 F1200 X63.65 Y140.866 E155.0751
G0 F7200 X63.992 Y140.359
G1 F1200 X65.738 Y142.106 E155.61008
G0 F7200 X66.587 Y142.106
G1 F1200 X64.231 Y139.75 E156.33177
G0 F7200 X64.28 Y138.95
G1 F1200 X67.436 Y142.107 E157.29866
G0 F7200 X68.285 Y142.107
G1 F1200 X63.942 Y137.764 E158.62901
G1 X63.836 Y137.658
G0 F7200 X63.252 Y137.942
G0 X62.926 Y136.748
G1 F1200 X56.812 Y130.634 E160.50184
G0 F7200 X56.812 Y131.482
G1 F1200 X61.638 Y136.309 E161.98028
G0 F7200 X60.876 Y136.395
G1 F1200 X56.812 Y132.331 E163.22516
G0 F7200 X56.812 Y133.179
G1 F1200 X60.274 Y136.641 E164.28564
G0 F7200 X59.732 Y136.948
G1 F1200 X56.812 Y134.028 E165.18009
G0 F7200 X56.812 Y134.876
G1 F1200 X59.315 Y137.38 E165.94696
G0 F7200 X59.008 Y137.921
G1 F1200 X56.812 Y135.725 E166.61963
G0 F7200 X56.812 Y136.573
G1 F1200 X58.72 Y138.482 E167.20424
G0 F7200 X58.726 Y139.336
G1 F1200 X56.812 Y137.422 E167.79054
G0 F7200 X56.812 Y138.27
G1 F1200 X59.159 Y140.617 E168.50947
G1 X59.265 Y140.723
G10
G0 F7200 X59.797 Y140.295
G0 X61.458 Y140.933
G0 X63.567 Y139.883
G0 X63.565 Y142.727
G0 X69.133 Y142.107
G11
G1 F1200 X56.812 Y129.785 E172.28377
G0 F7200 X56.812 Y128.937
G1 F1200 X69.684 Y141.809 E176.22671
G0 F7200 X69.684 Y140.96
G1 F1200 X56.812 Y128.089 E180.16949
G0 F7200 X56.812 Y127.24
G1 F1200 X69.684 Y140.112 E184.11242
G0 F7200 X69.684 Y139.263
G1 F1200 X56.812 Y126.392 E188.0552
G0 F7200 X56.812 Y125.543
G1 F1200 X69.684 Y138.415 E191.99813
G0 F7200 X69.684 Y137.566
G1 F1200 X56.812 Y124.695 E195.94092
G0 F7200 X56.812 Y123.846
G1 F1200 X69.684 Y136.718 E199.88385
G0 F7200 X69.684 Y135.869
G1 F1200 X56.812 Y122.998 E203.82663
G0 F7200 X56.812 Y122.149
G1 F1200 X69.684 Y135.021 E207.76956
G0 F7200 X69.684 Y134.172
G1 F1200 X56.812 Y121.301 E211.71234
G0 F7200 X56.812 Y120.452
G1 F1200 X69.684 Y133.324 E215.65528
G0 F7200 X69.684 Y132.475
G1 F1200 X56.812 Y119.604 E219.59806
G0 F7200 X56.812 Y118.755
G1 F1200 X69.684 Y131.627 E223.54099
G0 F7200 X69.684 Y130.778
G1 F1200 X60.692 Y121.786 E226.29541
G0 F7200 X61.665 Y121.911
G1 F1200 X69.684 Y129.929 E228.75163
G0 F7200 X69.684 Y129.081
G1 F1200 X62.348 Y121.745 E230.99878
G0 F7200 X62.962 Y121.511
G1 F1200 X69.684 Y128.232 E233.0577
G0 F7200 X69.684 Y127.384
G1 F1200 X63.454 Y121.154 E234.96607
G0 F7200 X63.797 Y120.648
G1 F1200 X69.684 Y126.535 E236.76936
G0 F7200 X69.684 Y125.687
G1 F1200 X64.113 Y120.116 E238.47586
G0 F7200 X64.28 Y119.434
G1 F1200 X69.684 Y124.838 E240.13121
G0 F7200 X69.684 Y123.99
G1 F1200 X64.28 Y118.585 E241.78671
G1 X64.174 Y118.479
G0 F7200 X63.583 Y118.611
G0 X62.877 Y117.461
G0 X62.879 Y115.521
G0 X64.381 Y116.141
G1 F1200 X69.684 Y121.444 E243.41112
G0 F7200 X69.684 Y120.596
G1 F1200 X65.229 Y116.141 E244.77577
G0 F7200 X66.078 Y116.141
G1 F1200 X69.684 Y119.747 E245.88035
G0 F7200 X69.684 Y118.899
G1 F1200 X66.926 Y116.14 E246.72533
G0 F7200 X67.774 Y116.14
G1 F1200 X69.684 Y118.05 E247.3104
G0 F7200 X69.684 Y117.202
G1 F1200 X68.623 Y116.14 E247.63556
G0 F7200 X69.471 Y116.14
G1 F1200 X69.684 Y116.353 E247.7008
G0 F7200 X70.384 Y116.353
G0 X70.384 Y122.293
G0 X69.684 Y122.293
G1 F1200 X63.532 Y116.141 E249.58528
G0 F7200 X62.708 Y116.166
G1 F1200 X69.684 Y123.141 E251.722
G1 X69.79 Y123.247
G10
G0 F7200 X70.384 Y123.247
G0 X70.284 Y117.19
G0 X63.229 Y117.746
G0 X60.518 Y116.521
G11
G1 F1200 X60.146 Y116.149 E251.83595
G0 F7200 X59.95 Y116.801
G1 F1200 X59.289 Y116.141 E252.03828
G0 F7200 X58.441 Y116.141
G1 F1200 X59.445 Y117.145 E252.34582
G0 F7200 X59.139 Y117.687
G1 F1200 X57.592 Y116.141 E252.81954
G0 F7200 X56.812 Y116.209
G1 F1200 X58.833 Y118.23 E253.43861
G0 F7200 X58.691 Y118.937
G1 F1200 X56.812 Y117.058 E254.01418
G0 F7200 X56.812 Y117.907
G1 F1200 X58.774 Y119.868 E254.61503
G1 X58.88 Y119.974
G10
G0 F7200 X59.474 Y119.902
G0 X60.524 Y120.647
G0 X62.582 Y120.589
G0 X63.66 Y118.612
G0 X159.307 Y118.945
G0 X162.9 Y118.776
;TYPE:WALL-OUTER
G11
G1 F1500 X162.896 Y119.519 E254.81118
G1 X162.376 Y120.292 E255.05713
G1 X161.451 Y120.576 E255.31258
G1 X160.723 Y120.35 E255.51382
G1 X160.133 Y119.618 E255.76203
G1 X160.066 Y118.857 E255.96371
G1 X160.533 Y118.03 E256.21444
G1 X161.373 Y117.688 E256.45388
G1 X161.986 Y117.769 E256.61712
G1 X162.663 Y118.274 E256.84009
G1 X162.9 Y118.776 E256.98665
G0 F7200 X162.899 Y119.076
G10
G0 X163.303 Y119.076
G0 X162.961 Y120.785
G0 X162.321 Y137.071
G0 X162.9 Y138.775
G11
G1 F1500 X162.896 Y139.518 E257.1828
G1 X162.37 Y140.3 E257.43161
G1 X161.452 Y140.577 E257.68475
G1 X160.719 Y140.352 E257.88718
G1 X160.133 Y139.626 E258.13349
G1 X160.07 Y138.862 E258.33587
G1 X160.536 Y138.031 E258.58739
G1 X161.412 Y137.673 E258.83722
G1 X161.996 Y137.776 E258.99378
G1 X162.655 Y138.268 E259.21089
G1 X162.9 Y138.775 E259.35955
G0 F7200 X162.899 Y139.075
G10
G0 X163.303 Y139.075
G0 X163.195 Y140.435
G0 X163.193 Y142.727
G0 X167.564 Y143.488
G11
G1 F1500 X167.564 Y114.76 E266.94374
G1 X151.933 Y114.761 E271.07032
G1 X151.933 Y143.487 E278.65399
G1 X167.564 Y143.488 E282.78057
G0 F7200 X167.564 Y143.188
G0 X166.964 Y142.888
;TYPE:WALL-INNER
G1 F1800 X166.964 Y115.36 E289.05696
G1 X152.533 Y115.361 E292.34722
G1 X152.533 Y142.887 E298.62315
G1 X166.964 Y142.888 E301.91342
G0 F7200 X162.748 Y142.727
G0 X162.265 Y141.146
G0 X162.75 Y140.811
G1 F1800 X161.645 Y141.148 E302.17682
G1 X161.191 Y141.125 E302.28046
G1 X160.368 Y140.872 E302.47677
G1 X159.55 Y139.858 E302.77381
G1 X159.455 Y138.722 E303.03372
G1 X160.002 Y137.749 E303.28822
G1 X160.31 Y137.479 E303.38161
G1 X161.182 Y137.122 E303.59644
G1 X161.595 Y137.096 E303.69079
G1 X162.252 Y137.218 E303.84315
G1 X163.105 Y137.855 E304.08588
G1 X163.5 Y138.629 E304.284
G1 X163.5 Y139.527 E304.48875
G1 X163.362 Y139.899 E304.57921
G1 X162.75 Y140.811 E304.82962
G10
G0 F7200 X163.241 Y139.615
G0 X162.981 Y138.13
G0 X161.637 Y136.94
G0 X161.224 Y121.299
G0 X160.113 Y117.553
G11
G1 F1800 X161.312 Y117.065 E305.12477
G1 X162.019 Y117.168 E305.28767
G1 X162.407 Y117.334 E305.38389
G1 X163.115 Y117.862 E305.58526
G1 X163.5 Y118.632 E305.78154
G1 X163.5 Y119.528 E305.98583
G1 X163.347 Y119.923 E306.08241
G1 X162.841 Y120.674 E306.28888
G1 X162.563 Y120.868 E306.36617
G1 X161.625 Y121.154 E306.58975
G1 X161.305 Y121.16 E306.66273
G1 X160.556 Y120.93 E306.84137
G1 X160.26 Y120.737 E306.92194
G1 X159.554 Y119.864 E307.17792
G1 X159.456 Y118.719 E307.43994
G1 X160.113 Y117.553 E307.74508
G0 F7200 X159.422 Y118.686
G0 X158.957 Y118.624
;TYPE:SKIN
G1 F1200 X159.691 Y117.323 E308.06863
G1 X160.191 Y117.006 E308.19687
G1 F1098.5 X161.244 Y116.537 E308.46735
G1 F989.2 X162.088 Y116.628 E308.68616
G1 F1072.8 X162.704 Y116.955 E308.85333
G1 F1200 X163.475 Y117.532 E309.06192
G1 X163.98 Y118.51 E309.30032
G1 X163.976 Y119.588 E309.53382
G1 X163.757 Y120.171 E309.66871
G1 X163.193 Y121.014 E309.8884
G1 X162.724 Y121.32 E310.0097
G1 X161.715 Y121.622 E310.23783
G1 X161.157 Y121.61 E310.35872
G1 X160.366 Y121.373 E310.53758
G1 X159.89 Y121.045 E310.66278
G1 X159.23 Y120.22 E310.89163
G1 X159.06 Y119.74 E311.00192
G1 X158.957 Y118.624 E311.24467
G10
G0 F7200 X159.422 Y118.686
G0 X159.806 Y119.76
G0 X161.224 Y121.299
G0 X161.637 Y136.94
G0 X161.443 Y141.742
G11
G1 F1149.2 X160.081 Y141.286 E311.56822
