;FLAVOR:UltiGCode
;TIME:21672
;MATERIAL:50061
;MATERIAL2:0
;NOZZLE_DIAMETER:0.6
;MINX:48.215
;MINY:90.215
;MINZ:0.4
;MAXX:174.785
;MAXY:132.785
;MAXZ:119.95
;TARGET_MACHINE.NAME:Ultimaker 2+
;Generated with Cura_SteamEngine 5.8.1
M82 ;absolute extrusion mode
G0 F3000 Y50 ;avoid prime blob
G92 E0
G92 E0
G10
;LAYER_COUNT:798
;LAYER:0
M107
G0 F7200 X50.038 Y90.577 Z0.4
;TYPE:SKIRT
G11
G1 F1800 X50.513 Y90.383 E0.12314
G1 X51.013 Y90.264 E0.24649
G1 X51.529 Y90.216 E0.37087
G1 X170.825 Y90.215 E29.00191
G1 X171.523 Y90.225 E29.16945
G1 X172.035 Y90.273 E29.29286
G1 X172.532 Y90.399 E29.41592
G1 X173.004 Y90.6 E29.53904
G1 X173.44 Y90.873 E29.6625
G1 X173.827 Y91.209 E29.7855
G1 X174.158 Y91.602 E29.90882
G1 X174.424 Y92.041 E30.03201
G1 X174.618 Y92.517 E30.15538
G1 X174.737 Y93.016 E30.27849
G1 X174.784 Y93.53 E30.40237
G1 X174.785 Y128.79 E38.86477
G1 X174.776 Y129.517 E39.03926
G1 X174.729 Y130.028 E39.16242
G1 X174.604 Y130.526 E39.28565
G1 X174.404 Y130.999 E39.4089
G1 X174.132 Y131.434 E39.53203
G1 X173.796 Y131.823 E39.65539
G1 X173.404 Y132.154 E39.77853
G1 X172.965 Y132.421 E39.90184
G1 X172.491 Y132.616 E40.02485
G1 X171.991 Y132.736 E40.14826
G1 X171.471 Y132.784 E40.27359
G1 X152.166 Y132.785 E44.90679
G1 X151.457 Y132.773 E45.07698
G1 X150.946 Y132.724 E45.20018
G1 X150.239 Y132.517 E45.37698
G1 X147.565 Y131.397 E46.07276
G1 X145.001 Y130.409 E46.73223
G1 X142.435 Y129.502 E47.38541
G1 X139.826 Y128.664 E48.04307
G1 X137.177 Y127.893 E48.70521
G1 X134.557 Y127.211 E49.35497
G1 X131.91 Y126.6 E50.00695
G1 X129.169 Y126.051 E50.67786
G1 X126.529 Y125.597 E51.32076
G1 X123.811 Y125.21 E51.97966
G1 X121.082 Y124.899 E52.63886
G1 X118.381 Y124.669 E53.28944
G1 X115.634 Y124.513 E53.94978
G1 X112.889 Y124.434 E54.60886
G1 X110.176 Y124.434 E55.25998
G1 X107.431 Y124.511 E55.91904
G1 X104.686 Y124.665 E56.57887
G1 X101.984 Y124.894 E57.22968
G1 X99.25 Y125.205 E57.89007
G1 X96.57 Y125.586 E58.53974
G1 X93.844 Y126.052 E59.20347
G1 X91.203 Y126.58 E59.84985
G1 X88.502 Y127.202 E60.51506
G1 X85.853 Y127.89 E61.17191
G1 X83.251 Y128.646 E61.82221
G1 X80.62 Y129.491 E62.48542
G1 X78.04 Y130.401 E63.14201
G1 X75.53 Y131.366 E63.7874
G1 X74.087 Y131.97 E64.16283
G1 X73.989 Y132.002 E64.18757
G1 X72.756 Y132.518 E64.50836
G1 X72.269 Y132.679 E64.63146
G1 X71.5 Y132.785 E64.81777
G1 X52.179 Y132.785 E69.45481
G1 X51.481 Y132.776 E69.62234
G1 X50.97 Y132.729 E69.7455
G1 X50.472 Y132.604 E69.86873
G1 X50 Y132.403 E69.99185
G1 X49.564 Y132.131 E70.11518
G1 X49.176 Y131.795 E70.23837
G1 X48.845 Y131.403 E70.3615
G1 X48.578 Y130.964 E70.48482
G1 X48.383 Y130.489 E70.60805
G1 X48.264 Y129.99 E70.73117
G1 X48.216 Y129.467 E70.85721
G1 X48.215 Y94.144 E79.33473
G1 X48.224 Y93.479 E79.49435
G1 X48.271 Y92.968 E79.61751
G1 X48.397 Y92.47 E79.74079
G1 X48.598 Y91.998 E79.86392
G1 X48.87 Y91.563 E79.98705
G1 X49.207 Y91.175 E80.11039
G1 X49.599 Y90.844 E80.23352
G1 X50.038 Y90.577 E80.35684
G10
;MESH:Part_Camera_v3.STL
G0 F7200 X52.249 Y92.814
G0 X52.249 Y94.249
G0 X52.834 Y116.865
G0 X52.838 Y127.087
G0 X53.166 Y125.941
G0 X54.151 Y126.845
;TYPE:WALL-OUTER
G11
G1 F1500 X54.068 Y126.684 E80.40466
G1 X54.064 Y96.364 E88.40914
G1 X54.151 Y96.151 E88.46988
G1 X54.312 Y96.068 E88.5177
G1 X168.632 Y96.064 E118.69818
G1 X168.845 Y96.151 E118.75892
G1 X168.932 Y96.364 E118.81966
G1 X168.928 Y126.684 E126.82414
G1 X168.684 Y126.928 E126.91524
G1 X151.932 Y126.932 E131.33777
G1 X151.932 Y129.064 E131.90061
G1 X171.064 Y129.064 E136.95146
G1 X171.064 Y93.932 E146.22631
G1 X51.932 Y93.932 E177.67716
G1 X51.932 Y129.064 E186.95201
G1 X71.064 Y129.064 E192.00285
G1 X71.064 Y126.932 E192.5657
G1 X54.364 Y126.932 E196.9745
G1 X54.151 Y126.845 E197.03524
G0 F7200 X54.068 Y126.684
G0 X54.068 Y126.565
G10
G0 X53.065 Y126.565
G0 X53.737 Y95.737
G0 X169.263 Y95.737
G0 X169.263 Y127.263
G0 X152.905 Y128.095
G0 X152.615 Y128.381
;TYPE:WALL-INNER
G11
G1 F1358.9 X168.869 Y128.376 E201.80352
G1 F1546.7 X169.764 Y128.464 E202.03864
G1 F1800 X170.464 Y128.464 E202.19824
G1 X170.464 Y127.764 E202.35784
G1 F1546.7 X170.376 Y126.869 E202.59295
G1 F1354.9 X170.378 Y111.616 E207.07916
G1 F1366.9 X170.381 Y96.363 E211.5306
G1 F1559.4 X170.464 Y95.232 E211.82493
G1 F1800 X170.464 Y94.532 E211.98453
G1 X169.764 Y94.532 E212.14413
G1 F1559.4 X168.632 Y94.615 E212.43872
G1 F1368.9 X152.274 Y94.615 E217.20642
G1 F1366.9 X135.916 Y94.616 E221.98034
G1 F1362.9 X119.558 Y94.617 E226.76669
G1 F1358.9 X103.2 Y94.617 E231.56547
G1 F1356.9 X86.842 Y94.618 E236.37047
G1 F1352.9 X70.484 Y94.619 E241.1879
G1 F1350.9 X54.126 Y94.62 E246.01155
G1 F1546.7 X53.232 Y94.532 E246.24641
G1 F1800 X52.532 Y94.532 E246.40601
G1 X52.532 Y95.232 E246.56561
G1 F1559.4 X52.615 Y96.364 E246.86019
G1 F1364.9 X52.617 Y111.617 E251.31743
G1 F1354.9 X52.62 Y126.87 E255.80364
G1 F1546.7 X52.532 Y127.764 E256.0385
G1 F1800 X52.532 Y128.464 E256.1981
G1 X53.232 Y128.464 E256.3577
G1 F1559.4 X54.364 Y128.381 E256.65228
G1 F1370.9 X70.381 Y128.381 E261.31451
G1 X70.381 Y127.615 E261.53748
G1 X54.364 Y127.615 E266.19971
G1 F1559.4 X53.727 Y127.269 E266.38785
G1 F1551.8 X53.381 Y126.789 E266.54209
G1 F1366.9 X53.381 Y96.364 E275.42133
G1 F1559.4 X53.727 Y95.727 E275.60947
G1 F1551.8 X54.207 Y95.381 E275.76371
G1 F1362.9 X92.349 Y95.381 E286.92406
G1 F1366.9 X130.491 Y95.381 E298.05542
G1 F1368.9 X168.633 Y95.381 E309.17229
G1 F1559.4 X169.269 Y95.727 E309.36021
G1 X169.615 Y96.364 E309.54835
G1 F1366.9 X169.615 Y126.791 E318.42816
G1 F1551.8 X169.269 Y127.269 E318.58199
G1 X168.789 Y127.615 E318.73623
G1 F1366.9 X152.615 Y127.615 E323.45645
G1 F1370.9 X152.615 Y128.381 E323.67942
G10
G0 F7200 X152.905 Y128.095
G0 X168.725 Y128.115
G0 X169.181 Y127.907
;TYPE:SKIN
G11
G1 F1417.9 X169.782 Y128.027 E323.79336
G1 X170.076 Y128.027 E323.84802
G1 X169.908 Y127.181 E324.00837
G1 X169.579 Y127.578 E324.10423
G1 X169.181 Y127.907 E324.20023
G10
G0 F7200 X168.703 Y128.163
G0 X170.248 Y96.167
G0 X169.915 Y95.962
G11
G1 F1406 X170.07 Y94.925 E324.39668
G1 X169.034 Y95.08 E324.59295
G1 X169.582 Y95.412 E324.71299
G1 X169.915 Y95.962 E324.83346
G10
G0 F7200 X170.248 Y96.167
G0 X53.737 Y95.737
G0 X52.904 Y96.5
G0 X53.078 Y95.963
G11
G1 F1411.9 X53.418 Y95.416 E324.95366
G1 X53.813 Y95.086 E325.04973
G1 X52.924 Y94.913 E325.21876
G1 X53.078 Y95.963 E325.41682
G10
G0 F7200 X52.751 Y96.189
G0 X53.737 Y127.263
G0 X54.5 Y128.092
G0 X53.961 Y127.914
G11
G1 F1409 X53.43 Y127.592 E325.53295
G1 X53.087 Y127.182 E325.63291
G1 X52.914 Y128.069 E325.8019
G1 X53.961 Y127.914 E325.99982
G10
;MESH:NONMESH
G0 F600 X53.961 Y127.914 Z0.55
G0 F7200 X54.162 Y128.249
G0 X53.167 Y110.567
G0 X53.155 Y96.359
G0 X52.834 Y100.938
G0 X52.249 Y94.249
G0 X52.249 Y92.814
G0 X50.038 Y90.577
;TIME_ELAPSED:59.043917
;LAYER:1
M106 S255
;TYPE:SKIRT
G11
G1 F1800 X50.513 Y90.383 E326.046
G1 X51.013 Y90.264 E326.09226
G1 X51.529 Y90.216 E326.1389
G1 X170.825 Y90.215 E336.87554
G1 X171.523 Y90.225 E336.93837
G1 X172.035 Y90.273 E336.98465
G1 X172.532 Y90.399 E337.03079
G1 X173.004 Y90.6 E337.07697
G1 X173.44 Y90.873 E337.12326
G1 X173.827 Y91.209 E337.16939
G1 X174.158 Y91.602 E337.21563
G1 X174.424 Y92.041 E337.26183
G1 X174.618 Y92.517 E337.30809
G1 X174.737 Y93.016 E337.35426
G1 X174.784 Y93.53 E337.40071
G1 X174.785 Y128.79 E340.57411
G1 X174.776 Y129.517 E340.63955
G1 X174.729 Y130.028 E340.68573
G1 X174.604 Y130.526 E340.73194
G1 X174.404 Y130.999 E340.77816
G1 X174.132 Y131.434 E340.82434
G1 X173.796 Y131.823 E340.8706
G1 X173.404 Y132.154 E340.91677
G1 X172.965 Y132.421 E340.96302
G1 X172.491 Y132.616 E341.00914
G1 X171.991 Y132.736 E341.05542
G1 X171.471 Y132.784 E341.10242
G1 X152.166 Y132.785 E342.83987
G1 X151.457 Y132.773 E342.90369
G1 X150.946 Y132.724 E342.94989
G1 X150.239 Y132.517 E343.01619
G1 X147.565 Y131.397 E343.27711
G1 X145.001 Y130.409 E343.52441
G1 X142.435 Y129.502 E343.76935
G1 X139.826 Y128.664 E344.01598
G1 X137.177 Y127.893 E344.26428
G1 X134.557 Y127.211 E344.50794
G1 X131.91 Y126.6 E344.75243
G1 X129.169 Y126.051 E345.00402
G1 X126.529 Y125.597 E345.24511
G1 X123.811 Y125.21 E345.4922
G1 X121.082 Y124.899 E345.7394
G1 X118.381 Y124.669 E345.98337
G1 X115.634 Y124.513 E346.23099
G1 X112.889 Y124.434 E346.47815
G1 X110.176 Y124.434 E346.72232
G1 X107.431 Y124.511 E346.96946
G1 X104.686 Y124.665 E347.2169
G1 X101.984 Y124.894 E347.46095
G1 X99.25 Y125.205 E347.7086
G1 X96.57 Y125.586 E347.95223
G1 X93.844 Y126.052 E348.20112
G1 X91.203 Y126.58 E348.44352
G1 X88.502 Y127.202 E348.69297
G1 X85.853 Y127.89 E348.93929
G1 X83.251 Y128.646 E349.18315
G1 X80.62 Y129.491 E349.43186
G1 X78.04 Y130.401 E349.67808
G1 X75.53 Y131.366 E349.9201
G1 X74.087 Y131.97 E350.06089
G1 X73.989 Y132.002 E350.07016
G1 X72.756 Y132.518 E350.19046
G1 X72.269 Y132.679 E350.23662
G1 X71.5 Y132.785 E350.30649
G1 X52.179 Y132.785 E352.04538
G1 X51.481 Y132.776 E352.1082
G1 X50.97 Y132.729 E352.15439
G1 X50.472 Y132.604 E352.2006
G1 X50 Y132.403 E352.24677
G1 X49.564 Y132.131 E352.29302
G1 X49.176 Y131.795 E352.33921
G1 X48.845 Y131.403 E352.38539
G1 X48.578 Y130.964 E352.43163
G1 X48.383 Y130.489 E352.47784
G1 X48.264 Y129.99 E352.52401
G1 X48.216 Y129.467 E352.57128
G1 X48.215 Y94.144 E355.75035
G1 X48.224 Y93.479 E355.81021
G1 X48.271 Y92.968 E355.85639
G1 X48.397 Y92.47 E355.90262
G1 X48.598 Y91.998 E355.94879
G1 X48.87 Y91.563 E355.99497
G1 X49.207 Y91.175 E356.04122
G1 X49.599 Y90.844 E356.08739
G1 X50.038 Y90.577 E356.13364
G10
;MESH:Part_Camera_v3.STL
G0 F7200 X52.129 Y92.694
G0 X52.129 Y94.129
G0 X53.857 Y127.143
G0 X54.399 Y126.812
;TYPE:WALL-OUTER
G11
G1 F1500 X54.188 Y126.564 E356.16294
G1 X54.184 Y96.399 E358.87779
G1 X54.432 Y96.188 E358.9071
G1 X168.608 Y96.184 E369.18294
G1 X168.812 Y96.388 E369.2089
G1 X168.808 Y126.564 E371.92474
G1 X168.564 Y126.808 E371.9558
G1 X151.812 Y126.812 E373.46348
G1 X151.812 Y129.184 E373.67696
G1 X171.184 Y129.184 E375.42044
G1 X171.184 Y93.812 E378.60392
G1 X51.812 Y93.812 E389.3474
G1 X51.812 Y129.184 E392.53088
G1 X71.184 Y129.184 E394.27436
G1 X71.184 Y126.812 E394.48784
G1 X54.399 Y126.812 E395.99849
G0 F7200 X54.205 Y126.584
G10
G0 X53.185 Y126.584
G0 X53.257 Y95.257
G0 X169.743 Y95.257
G0 X169.743 Y127.743
G0 X152.785 Y128.215
G0 X152.555 Y128.441
;TYPE:WALL-INNER
G11
G1 F1354.3 X168.633 Y128.437 E398.13526
G1 F1655.4 X169.224 Y128.575 E398.20289
G1 F2100 X170.584 Y128.584 E398.3253
G1 X170.584 Y127.224 E398.4477
G1 F1647.9 X170.439 Y126.633 E398.51579
G1 F1350.8 X170.441 Y96.484 E402.53164
G1 F1655.4 X170.584 Y95.868 E402.60212
G1 F2100 X170.584 Y94.412 E402.73316
G1 X169.128 Y94.411 E402.8642
G1 F1655.4 X168.512 Y94.555 E402.9347
G1 F1354.3 X54.363 Y94.559 E418.1051
G1 F1655.4 X53.772 Y94.421 E418.17274
G1 F2100 X52.412 Y94.412 E418.29514
G1 X52.411 Y95.868 E418.42619
G1 F1655.4 X52.555 Y96.484 E418.49669
G1 F1354.3 X52.559 Y126.633 E422.50349
G1 F1655.4 X52.421 Y127.224 E422.57113
G1 F2100 X52.412 Y128.584 E422.69353
G1 X53.868 Y128.585 E422.82457
G1 F1655.4 X54.484 Y128.441 E422.89508
G1 F1354.3 X70.441 Y128.441 E425.01576
G1 X70.441 Y127.555 E425.13351
G1 X54.484 Y127.555 E427.2542
G1 F1655.4 X54.126 Y127.338 E427.30085
G1 F2100 X53.847 Y127.149 E427.33118
G1 F1852.5 X53.444 Y126.636 E427.39694
G1 F1647.9 X53.444 Y125.265 E427.55036
G1 F1630.6 X53.444 Y123.894 E427.70521
G1 F1616.1 X53.444 Y122.523 E427.8613
G1 F1599.4 X53.444 Y121.152 E428.01883
G1 F1585.3 X53.444 Y119.781 E428.17759
G1 F1569.2 X53.444 Y118.41 E428.33779
G1 F1555.6 X53.444 Y117.039 E428.49922
G1 F1540 X53.443 Y115.668 E428.6621
G1 F1526.8 X53.443 Y114.297 E428.82621
G1 F1511.7 X53.443 Y112.926 E428.99176
G1 F1499 X53.443 Y111.555 E429.15854
G1 F1484.4 X53.443 Y110.184 E429.32676
G1 F1472 X53.443 Y108.813 E429.49622
G1 F1457.9 X53.443 Y107.442 E429.66711
G1 F1445.9 X53.442 Y106.071 E429.83924
G1 F1432.2 X53.442 Y104.7 E430.01281
G1 F1420.6 X53.442 Y103.329 E430.18761
G1 F1407.3 X53.442 Y101.958 E430.36385
G1 F1396 X53.442 Y100.587 E430.54133
G1 F1383.1 X53.442 Y99.216 E430.72024
G1 F1372.2 X53.442 Y97.845 E430.90039
G1 F1359.6 X53.441 Y96.474 E431.08198
G1 F1655.4 X53.658 Y96.126 E431.12769
G1 F2100 X53.847 Y95.847 E431.15802
G1 F1852.5 X54.36 Y95.444 E431.22378
G1 F1652.9 X55.752 Y95.444 E431.37912
G1 F1647.9 X57.144 Y95.444 E431.53489
G1 F1645.4 X58.536 Y95.444 E431.69086
G1 F1640.5 X59.928 Y95.444 E431.84725
G1 F1635.5 X61.32 Y95.444 E432.00406
G1 F1630.6 X62.712 Y95.444 E432.16129
G1 F1628.2 X64.104 Y95.444 E432.31872
G1 F1623.3 X65.496 Y95.444 E432.47658
G1 F1618.5 X66.888 Y95.444 E432.63485
G1 F1613.7 X68.28 Y95.444 E432.79354
G1 F1611.3 X69.672 Y95.444 E432.95243
G1 F1606.5 X71.064 Y95.444 E433.11175
G1 F1601.8 X72.456 Y95.444 E433.27148
G1 F1597 X73.848 Y95.444 E433.43163
G1 F1594.7 X75.24 Y95.444 E433.59199
G1 F1590 X76.632 Y95.444 E433.75276
G1 F1585.3 X78.024 Y95.444 E433.91396
G1 F1580.7 X79.416 Y95.444 E434.07557
G1 F1578.4 X80.808 Y95.444 E434.23739
G1 F1573.8 X82.2 Y95.444 E434.39963
G1 F1569.2 X83.592 Y95.444 E434.56228
G1 F1566.9 X84.984 Y95.444 E434.72514
G1 F1562.4 X86.376 Y95.444 E434.88843
G1 F1557.9 X87.768 Y95.444 E435.05213
G1 F1553.4 X89.16 Y95.444 E435.21624
G1 F1551.1 X90.552 Y95.444 E435.38057
G1 F1546.7 X91.944 Y95.444 E435.54531
G1 F1542.2 X93.336 Y95.443 E435.71047
G1 F1537.8 X94.728 Y95.443 E435.87605
G1 F1535.6 X96.12 Y95.443 E436.04184
G1 F1531.2 X97.512 Y95.443 E436.20804
G1 F1526.8 X98.904 Y95.443 E436.37466
G1 F1522.5 X100.296 Y95.443 E436.5417
G1 F1520.3 X101.688 Y95.443 E436.70895
G1 F1516 X103.08 Y95.443 E436.87662
G1 F1511.7 X104.472 Y95.443 E437.0447
G1 F1507.5 X105.864 Y95.443 E437.21321
G1 F1505.3 X107.256 Y95.443 E437.38192
G1 F1501.1 X108.648 Y95.443 E437.55104
G1 F1496.9 X110.04 Y95.443 E437.72059
G1 F1492.7 X111.432 Y95.443 E437.89055
G1 F1490.6 X112.824 Y95.443 E438.06072
G1 F1486.5 X114.216 Y95.443 E438.23131
G1 F1482.3 X115.608 Y95.443 E438.40232
G1 F1478.2 X117 Y95.443 E438.57375
G1 F1476.1 X118.392 Y95.443 E438.74538
G1 F1472 X119.784 Y95.443 E438.91743
G1 F1468 X121.176 Y95.443 E439.0899
G1 F1463.9 X122.568 Y95.443 E439.26279
G1 F1461.9 X123.96 Y95.443 E439.43588
G1 F1457.9 X125.352 Y95.443 E439.60939
G1 F1453.9 X126.744 Y95.443 E439.78332
G1 F1449.9 X128.136 Y95.443 E439.95767
G1 F1447.9 X129.528 Y95.443 E440.13223
G1 F1443.9 X130.92 Y95.442 E440.3072
G1 F1440 X132.312 Y95.442 E440.4826
G1 F1436.1 X133.704 Y95.442 E440.65841
G1 F1434.1 X135.096 Y95.442 E440.83442
G1 F1430.2 X136.488 Y95.442 E441.01086
G1 F1426.4 X137.88 Y95.442 E441.18771
G1 F1422.5 X139.272 Y95.442 E441.36498
G1 F1420.6 X140.664 Y95.442 E441.54246
G1 F1416.8 X142.056 Y95.442 E441.72036
G1 F1413 X143.448 Y95.442 E441.89868
G1 F1411.1 X144.84 Y95.442 E442.0772
G1 F1407.3 X146.232 Y95.442 E442.25614
G1 F1403.5 X147.624 Y95.442 E442.4355
G1 F1399.8 X149.016 Y95.442 E442.61528
G1 F1397.9 X150.408 Y95.442 E442.79526
G1 F1394.2 X151.8 Y95.442 E442.97567
G1 F1390.5 X153.192 Y95.442 E443.15649
G1 F1386.8 X154.584 Y95.442 E443.33773
G1 F1384.9 X155.976 Y95.442 E443.51917
G1 F1381.3 X157.368 Y95.442 E443.70104
G1 F1377.6 X158.76 Y95.442 E443.88332
G1 F1374 X160.152 Y95.442 E444.06602
G1 F1372.2 X161.544 Y95.442 E444.24893
G1 F1368.6 X162.936 Y95.442 E444.43226
G1 F1365 X164.328 Y95.442 E444.616
G1 F1361.4 X165.72 Y95.442 E444.80016
G1 F1359.6 X167.112 Y95.442 E444.98453
G1 F1356.1 X168.504 Y95.442 E445.16932
G1 F1655.4 X168.87 Y95.658 E445.21669
G1 F2100 X169.149 Y95.847 E445.24701
G1 X169.339 Y96.126 E445.27739
G1 F1655.4 X169.555 Y96.484 E445.32399
G1 F1350.8 X169.55 Y126.597 E449.33504
G1 F1647.9 X169.149 Y127.149 E449.41139
G1 F1852.5 X168.636 Y127.552 E449.47715
G1 F1640.5 X167.296 Y127.552 E449.6277
G1 F1611.3 X165.956 Y127.552 E449.78066
G1 F1583 X164.616 Y127.552 E449.93603
G1 F1555.6 X163.276 Y127.552 E450.09382
G1 F1529 X161.936 Y127.553 E450.25401
G1 F1503.2 X160.596 Y127.553 E450.41662
G1 F1480.2 X159.256 Y127.553 E450.58144
G1 F1455.9 X157.916 Y127.553 E450.74868
G1 F1432.2 X156.576 Y127.554 E450.91832
G1 F1409.2 X155.236 Y127.554 E451.09038
G1 F1386.8 X153.896 Y127.554 E451.26484
G1 F1365 X152.556 Y127.554 E451.44172
G1 F1354.3 X152.555 Y128.441 E451.55961
G10
