;FLAVOR:UltiGCode
;TIME:23857
;MATERIAL:55286
;MATERIAL2:0
;NOZZLE_DIAMETER:0.6
;MINX:18.415
;MINY:124.991
;MINZ:0.4
;MAXX:204.585
;MAXY:144.561
;MAXZ:100
;TARGET_MACHINE.NAME:Ultimaker 2+
;Generated with Cura_SteamEngine 5.8.1
M82 ;absolute extrusion mode
G0 F3000 Y50 ;avoid prime blob
G92 E0
G92 E0
G10
;LAYER_COUNT:665
;LAYER:0
M107
G0 F7200 X22.968 Y132.547 Z0.4
;TYPE:SKIRT
G11
G1 F1800 X23.519 Y132.492 E0.1329
G1 X37.54 Y132.491 E3.49794
G1 X40.334 Y132.451 E4.16857
G1 X43.045 Y132.336 E4.81979
G1 X45.788 Y132.142 E5.47976
G1 X48.516 Y131.872 E6.13767
G1 X51.208 Y131.527 E6.78904
G1 X53.932 Y131.099 E7.45082
G1 X56.6 Y130.603 E8.10211
G1 X59.285 Y130.025 E8.76127
G1 X61.892 Y129.387 E9.40542
G1 X64.602 Y128.641 E10.08001
G1 X67.169 Y127.855 E10.72432
G1 X69.787 Y126.972 E11.38742
G1 X73.413 Y125.61 E12.31702
G1 X73.748 Y125.477 E12.40353
G1 X74.227 Y125.317 E12.52473
G1 X75.286 Y125.076 E12.78539
G1 X76.278 Y125.008 E13.02403
G1 X77.012 Y124.991 E13.20024
G1 X145.839 Y124.991 E29.71872
G1 X146.663 Y125.005 E29.91651
G1 X147.585 Y125.077 E30.13846
G1 X148.088 Y125.151 E30.26048
G1 X149.04 Y125.396 E30.4964
G1 X151.642 Y126.396 E31.16541
G1 X154.221 Y127.316 E31.82258
G1 X156.831 Y128.164 E32.48121
G1 X159.469 Y128.94 E33.14116
G1 X162.107 Y129.635 E33.79588
G1 X164.75 Y130.254 E34.44736
G1 X167.468 Y130.807 E35.11305
G1 X170.165 Y131.278 E35.77012
G1 X172.818 Y131.665 E36.41358
G1 X175.577 Y131.987 E37.08024
G1 X178.285 Y132.227 E37.7327
G1 X181.024 Y132.391 E38.39124
G1 X183.737 Y132.476 E39.04268
G1 X185.458 Y132.491 E39.45574
G1 X198.825 Y132.491 E42.66382
G1 X199.527 Y132.501 E42.83231
G1 X200.038 Y132.549 E42.95549
G1 X200.536 Y132.675 E43.07878
G1 X201.008 Y132.876 E43.2019
G1 X201.443 Y133.149 E43.32516
G1 X201.831 Y133.485 E43.44834
G1 X202.158 Y133.872 E43.56994
G1 X203.953 Y136.364 E44.30702
G1 X204.219 Y136.803 E44.43021
G1 X204.415 Y137.278 E44.55354
G1 X204.534 Y137.777 E44.67666
G1 X204.585 Y138.32 E44.80755
G1 X204.585 Y140.57 E45.34755
G1 X204.575 Y141.297 E45.52205
G1 X204.528 Y141.809 E45.64544
G1 X204.402 Y142.306 E45.7685
G1 X204.201 Y142.779 E45.89184
G1 X203.928 Y143.214 E46.0151
G1 X203.592 Y143.602 E46.13828
G1 X203.199 Y143.933 E46.2616
G1 X202.76 Y144.199 E46.38479
G1 X202.285 Y144.394 E46.50802
G1 X201.786 Y144.512 E46.63109
G1 X201.272 Y144.56 E46.75498
G1 X22.379 Y144.561 E89.6893
G1 X21.681 Y144.552 E89.85684
G1 X21.17 Y144.505 E89.97999
G1 X20.672 Y144.38 E90.10322
G1 X20.2 Y144.179 E90.22634
G1 X19.764 Y143.907 E90.34968
G1 X19.376 Y143.571 E90.47286
G1 X19.045 Y143.179 E90.59599
G1 X18.778 Y142.74 E90.71931
G1 X18.583 Y142.265 E90.84254
G1 X18.464 Y141.766 E90.96566
G1 X18.416 Y141.244 E91.09147
G1 X18.415 Y138.951 E91.64179
G1 X18.425 Y138.249 E91.81029
G1 X18.473 Y137.738 E91.93347
G1 X18.599 Y137.24 E92.05675
G1 X18.86 Y136.628 E92.21643
G1 X20.842 Y133.873 E93.03096
G1 X21.174 Y133.48 E93.15443
G1 X21.562 Y133.144 E93.27762
G1 X21.998 Y132.873 E93.40082
G1 X22.47 Y132.672 E93.52395
G1 X22.968 Y132.547 E93.64717
G10
;MESH:Part_Acrylic_Case_Left.STL
G0 F7200 X70.814 Y133.311
G0 X72.255 Y133.311
G0 X199.45 Y139.571
G0 X199.236 Y138.708
;TYPE:WALL-OUTER
G11
G1 F1500 X199.064 Y138.501 E93.71822
G1 X199.064 Y136.208 E94.32358
G1 X183.932 Y136.208 E98.31842
G1 X183.932 Y138.501 E98.92378
G1 X183.684 Y138.704 E99.00839
G1 X151.364 Y138.708 E107.54087
G1 X151.064 Y138.495 E107.638
G1 X151.064 Y133.293 E109.01133
G1 X151.002 Y132.548 E109.20869
G1 X150.841 Y131.877 E109.39086
G1 X150.563 Y131.205 E109.58285
G1 X150.184 Y130.585 E109.77469
G1 X149.727 Y130.045 E109.96145
G1 X149.187 Y129.588 E110.14821
G1 X148.571 Y129.213 E110.33859
G1 X147.894 Y128.931 E110.53221
G1 X147.22 Y128.77 E110.71515
G1 X146.471 Y128.708 E110.91356
G1 X76.525 Y128.708 E129.37931
G1 X75.776 Y128.77 E129.57772
G1 X75.102 Y128.931 E129.76066
G1 X74.429 Y129.213 E129.9533
G1 X73.808 Y129.589 E130.14495
G1 X73.269 Y130.045 E130.33134
G1 X72.813 Y130.584 E130.51773
G1 X72.437 Y131.205 E130.70938
G1 X72.155 Y131.878 E130.90202
G1 X71.994 Y132.548 E131.08394
G1 X71.932 Y133.301 E131.2834
G1 X71.932 Y138.494 E132.65435
G1 X71.684 Y138.704 E132.74015
G1 X39.364 Y138.708 E141.27263
G1 X39.064 Y138.501 E141.36885
G1 X39.064 Y136.208 E141.9742
G1 X23.932 Y136.208 E145.96905
G1 X23.932 Y138.501 E146.5744
G1 X23.684 Y138.704 E146.65901
G1 X22.132 Y138.708 E147.06874
G1 X22.132 Y140.84 E147.63159
G1 X200.864 Y140.84 E194.81684
G1 X200.864 Y138.708 E195.37968
G1 X199.236 Y138.708 E195.80948
G0 F7200 X199.064 Y138.501
G0 X199.064 Y138.47
G0 X199.414 Y139.636
G0 X200.181 Y140.157
;TYPE:WALL-INNER
G1 F1370.9 X200.181 Y139.391 E196.03244
G1 X199.364 Y139.391 E196.27026
G1 F1559.4 X198.843 Y139.142 E196.42013
G1 F1800 X198.548 Y138.788 E196.52519
G1 X198.465 Y138.448 E196.60499
G1 X198.464 Y136.808 E196.97891
G1 X184.532 Y136.808 E200.1554
G1 X184.531 Y138.448 E200.52932
G1 X184.448 Y138.788 E200.60912
G1 X184.153 Y139.142 E200.71418
G1 F1551.8 X183.788 Y139.391 E200.82936
G1 F1366.9 X151.364 Y139.391 E210.29198
G1 F1559.4 X150.824 Y139.128 E210.44787
G1 F1800 X150.533 Y138.755 E210.55573
G1 X150.464 Y138.408 E210.6364
G1 X150.464 Y133.317 E211.79715
G1 X150.408 Y132.643 E211.95135
G1 X150.269 Y132.063 E212.08733
G1 X150.027 Y131.478 E212.23168
G1 X149.696 Y130.937 E212.37628
G1 X149.301 Y130.471 E212.51556
G1 X148.835 Y130.076 E212.65484
G1 X148.298 Y129.749 E212.79819
G1 X147.708 Y129.503 E212.94394
G1 X147.125 Y129.364 E213.08059
G1 X146.447 Y129.308 E213.2357
G1 X76.549 Y129.308 E229.17244
G1 X75.87 Y129.364 E229.32778
G1 X75.289 Y129.503 E229.46399
G1 X74.702 Y129.749 E229.6091
G1 X74.16 Y130.077 E229.75354
G1 X73.695 Y130.471 E229.8925
G1 X73.301 Y130.936 E230.03146
G1 X72.973 Y131.478 E230.17591
G1 X72.727 Y132.065 E230.32102
G1 X72.588 Y132.643 E230.45656
G1 X72.532 Y133.325 E230.61258
G1 X72.532 Y138.408 E231.7715
G1 X72.463 Y138.755 E231.85217
G1 X72.172 Y139.129 E231.96021
G1 F1551.8 X71.788 Y139.391 E232.08139
G1 F1366.9 X39.364 Y139.391 E241.54401
G1 F1559.4 X38.843 Y139.142 E241.69388
G1 F1800 X38.548 Y138.788 E241.79895
G1 X38.465 Y138.448 E241.87874
G1 X38.464 Y136.808 E242.25266
G1 X24.532 Y136.808 E245.42916
G1 X24.531 Y138.448 E245.80308
G1 X24.448 Y138.788 E245.88288
G1 X24.153 Y139.142 E245.98794
G1 F1551.8 X23.788 Y139.391 E246.10312
G1 F1366.9 X22.815 Y139.391 E246.38708
G1 F1370.9 X22.815 Y140.157 E246.61005
G1 F1358.9 X23.869 Y140.152 E246.91925
G1 F1546.7 X24.503 Y140.241 E247.08663
G1 F1800 X38.493 Y140.241 E250.27635
G1 F1559.4 X39.364 Y140.157 E250.50346
G1 F1364.9 X55.617 Y140.155 E255.25291
G1 F1354.9 X71.87 Y140.152 E260.03324
G1 F1546.7 X72.542 Y140.24 E260.21043
G1 F1800 X150.453 Y140.241 E277.97414
G1 F1559.4 X151.364 Y140.157 E278.21158
G1 F1364.9 X167.617 Y140.155 E282.96103
G1 F1354.9 X183.87 Y140.152 E287.74137
G1 F1546.7 X184.503 Y140.241 E287.90848
G1 F1800 X198.493 Y140.241 E291.0982
G1 F1559.4 X199.364 Y140.157 E291.32531
G1 F1370.9 X200.181 Y140.157 E291.56313
G0 F7200 X199.895 Y139.871
G0 X198.842 Y139.688
;TYPE:SKIN
G1 F1200 X198.549 Y139.517 E291.63661
G1 X198.153 Y139.049 E291.7694
G1 X197.984 Y138.46 E291.90212
G1 X197.984 Y137.288 E292.15598
G1 X185.012 Y137.288 E294.96571
G1 X185.008 Y138.46 E295.21957
G1 X184.84 Y139.047 E295.35182
G1 X184.304 Y139.696 E295.53413
G1 X184.526 Y139.76 E295.58418
G1 X198.471 Y139.76 E298.60466
G1 X198.842 Y139.688 E298.68652
G0 F7200 X199.245 Y140.021
G0 X198.4 Y138.85
G0 X198.312 Y136.96
G0 X196.985 Y136.888
G0 X196.985 Y137.588
G1 F1200 X197.684 Y138.287 E298.90064
G0 F7200 X198.008 Y139.459
G1 F1200 X196.137 Y137.588 E299.47376
G0 F7200 X195.288 Y137.588
G1 F1200 X197.159 Y139.459 E300.04688
G0 F7200 X196.311 Y139.459
G1 F1200 X194.44 Y137.588 E300.62001
G0 F7200 X193.591 Y137.588
G1 F1200 X195.462 Y139.459 E301.19313
G0 F7200 X194.613 Y139.459
G1 F1200 X192.742 Y137.588 E301.76625
G0 F7200 X191.894 Y137.588
G1 F1200 X193.765 Y139.459 E302.33937
G0 F7200 X192.916 Y139.459
G1 F1200 X191.045 Y137.588 E302.91249
G0 F7200 X190.197 Y137.588
G1 F1200 X192.068 Y139.459 E303.48562
G0 F7200 X191.219 Y139.458
G1 F1200 X189.348 Y137.588 E304.05859
G0 F7200 X188.5 Y137.588
G1 F1200 X190.37 Y139.458 E304.6314
G0 F7200 X189.522 Y139.458
G1 F1200 X187.651 Y137.588 E305.20437
G0 F7200 X186.803 Y137.588
G1 F1200 X188.673 Y139.458 E305.77719
G0 F7200 X187.825 Y139.458
G1 F1200 X185.954 Y137.588 E306.35016
G0 F7200 X185.31 Y137.792
G1 F1200 X186.976 Y139.458 E306.86048
G0 F7200 X186.127 Y139.458
G1 F1200 X185.278 Y138.608 E307.1207
G0 F7200 X185.043 Y139.223
G1 F1200 X185.279 Y139.458 E307.19284
G10
G0 F7200 X185.279 Y140.161
G0 X151.234 Y140.022
G0 X150.842 Y139.683
G11
G1 F1200 X150.522 Y139.494 E307.27334
G1 X150.131 Y139.001 E307.40963
G1 X149.989 Y138.455 E307.53183
G1 X149.984 Y133.329 E308.64212
G1 X149.931 Y132.709 E308.7769
G1 X149.813 Y132.221 E308.88565
G1 X149.595 Y131.693 E309.00938
G1 X149.296 Y131.209 E309.1326
G1 X148.959 Y130.809 E309.24589
G1 X148.556 Y130.469 E309.3601
G1 X148.083 Y130.181 E309.48005
G1 X147.55 Y129.959 E309.60511
G1 X147.052 Y129.838 E309.71611
G1 X146.42 Y129.788 E309.85343
G1 X76.572 Y129.788 E324.98251
G1 X75.94 Y129.838 E325.11983
G1 X75.442 Y129.958 E325.23078
G1 X74.913 Y130.181 E325.35513
G1 X74.436 Y130.469 E325.47582
G1 X74.033 Y130.809 E325.59002
G1 X73.693 Y131.212 E325.70423
G1 X73.405 Y131.685 E325.82418
G1 X73.182 Y132.222 E325.95012
G1 X73.062 Y132.708 E326.05855
G1 X73.012 Y133.348 E326.1976
G1 X73.007 Y138.455 E327.30377
G1 X72.865 Y139.001 E327.42597
G1 X72.325 Y139.695 E327.61644
G1 X72.567 Y139.76 E327.67071
G1 X150.432 Y139.76 E344.53627
G1 X150.842 Y139.683 E344.62663
G0 F7200 X151.234 Y140.022
G0 X150.737 Y139.039
G0 X150.291 Y132.497
G0 X149.625 Y132.655
G1 F1200 X147.114 Y130.144 E345.3958
G0 F7200 X146.21 Y130.088
G1 F1200 X149.685 Y133.563 E346.46025
G0 F7200 X149.685 Y134.411
G1 F1200 X145.361 Y130.088 E347.78462
G0 F7200 X144.513 Y130.088
G1 F1200 X149.685 Y135.26 E349.3689
G0 F7200 X149.685 Y136.108
G1 F1200 X143.664 Y130.088 E351.21309
G0 F7200 X142.816 Y130.088
G1 F1200 X149.685 Y136.957 E353.3172
G0 F7200 X149.685 Y137.805
G1 F1200 X141.967 Y130.088 E355.68121
G0 F7200 X141.119 Y130.088
G1 F1200 X149.74 Y138.709 E358.32198
G0 F7200 X149.641 Y139.459
G1 F1200 X140.27 Y130.088 E361.1925
G0 F7200 X139.422 Y130.088
G1 F1200 X148.793 Y139.459 E364.06301
G0 F7200 X147.944 Y139.459
G1 F1200 X138.573 Y130.088 E366.93352
G0 F7200 X137.725 Y130.088
G1 F1200 X147.096 Y139.459 E369.80403
G0 F7200 X146.247 Y139.459
G1 F1200 X136.876 Y130.088 E372.67454
G0 F7200 X136.028 Y130.088
G1 F1200 X145.399 Y139.459 E375.54506
G0 F7200 X144.55 Y139.459
G1 F1200 X135.179 Y130.088 E378.41557
G0 F7200 X134.33 Y130.088
G1 F1200 X143.702 Y139.459 E381.28623
G0 F7200 X142.853 Y139.459
G1 F1200 X133.482 Y130.088 E384.15675
G0 F7200 X132.633 Y130.088
G1 F1200 X142.005 Y139.459 E387.02741
G0 F7200 X141.156 Y139.459
G1 F1200 X131.785 Y130.088 E389.89792
G0 F7200 X130.936 Y130.088
G1 F1200 X140.308 Y139.459 E392.76859
G0 F7200 X139.459 Y139.459
G1 F1200 X130.088 Y130.088 E395.6391
G0 F7200 X129.239 Y130.088
G1 F1200 X138.611 Y139.459 E398.50977
G0 F7200 X137.762 Y139.459
G1 F1200 X128.391 Y130.088 E401.38028
G0 F7200 X127.542 Y130.088
G1 F1200 X136.914 Y139.459 E404.25094
G0 F7200 X136.065 Y139.459
G1 F1200 X126.694 Y130.088 E407.12146
G0 F7200 X125.845 Y130.088
G1 F1200 X135.216 Y139.459 E409.99197
G0 F7200 X134.368 Y139.459
G1 F1200 X124.997 Y130.088 E412.86248
G0 F7200 X124.148 Y130.088
G1 F1200 X133.519 Y139.459 E415.73299
G0 F7200 X132.671 Y139.459
G1 F1200 X123.3 Y130.088 E418.6035
G0 F7200 X122.451 Y130.088
G1 F1200 X131.822 Y139.459 E421.47402
G0 F7200 X130.974 Y139.459
G1 F1200 X121.603 Y130.088 E424.34453
G0 F7200 X120.754 Y130.088
G1 F1200 X130.125 Y139.459 E427.21504
G0 F7200 X129.277 Y139.459
G1 F1200 X119.906 Y130.088 E430.08555
G0 F7200 X119.057 Y130.088
G1 F1200 X128.428 Y139.459 E432.95606
G0 F7200 X127.58 Y139.459
G1 F1200 X118.208 Y130.088 E435.82673
G0 F7200 X117.36 Y130.088
G1 F1200 X126.731 Y139.459 E438.69724
G0 F7200 X125.883 Y139.459
G1 F1200 X116.511 Y130.088 E441.56791
G0 F7200 X115.663 Y130.088
G1 F1200 X125.034 Y139.459 E444.43842
G0 F7200 X124.186 Y139.459
G1 F1200 X114.814 Y130.088 E447.30909
G0 F7200 X113.966 Y130.088
G1 F1200 X123.337 Y139.459 E450.1796
G0 F7200 X122.489 Y139.459
G1 F1200 X113.117 Y130.088 E453.05026
G0 F7200 X112.269 Y130.088
G1 F1200 X121.64 Y139.459 E455.92077
G0 F7200 X120.792 Y139.459
G1 F1200 X111.42 Y130.088 E458.79144
G0 F7200 X110.572 Y130.088
G1 F1200 X119.943 Y139.459 E461.66195
G0 F7200 X119.094 Y139.459
G1 F1200 X109.723 Y130.088 E464.53246
G0 F7200 X108.875 Y130.088
G1 F1200 X118.246 Y139.459 E467.40298
G0 F7200 X117.397 Y139.459
G1 F1200 X108.026 Y130.088 E470.27349
G0 F7200 X107.178 Y130.088
G1 F1200 X116.549 Y139.459 E473.144
G0 F7200 X115.7 Y139.459
G1 F1200 X106.329 Y130.088 E476.01451
G0 F7200 X105.481 Y130.088
G1 F1200 X114.852 Y139.459 E478.88503
G0 F7200 X114.003 Y139.459
G1 F1200 X104.632 Y130.088 E481.75554
G0 F7200 X103.783 Y130.088
G1 F1200 X113.155 Y139.459 E484.6262
G0 F7200 X112.306 Y139.459
G1 F1200 X102.935 Y130.088 E487.49671
G0 F7200 X102.086 Y130.088
G1 F1200 X111.458 Y139.459 E490.36738
G0 F7200 X110.609 Y139.459
G1 F1200 X101.238 Y130.088 E493.23789
G0 F7200 X100.389 Y130.088
G1 F1200 X109.761 Y139.459 E496.10856
G0 F7200 X108.912 Y139.459
G1 F1200 X99.541 Y130.088 E498.97907
G0 F7200 X98.692 Y130.088
G1 F1200 X108.064 Y139.459 E501.84973
G0 F7200 X107.215 Y139.459
G1 F1200 X97.844 Y130.088 E504.72025
G0 F7200 X96.995 Y130.088
G1 F1200 X106.367 Y139.459 E507.59091
G0 F7200 X105.518 Y139.459
G1 F1200 X96.147 Y130.088 E510.46142
G0 F7200 X95.298 Y130.088
G1 F1200 X104.669 Y139.459 E513.33194
G0 F7200 X103.821 Y139.459
G1 F1200 X94.45 Y130.088 E516.20245
G0 F7200 X93.601 Y130.088
G1 F1200 X102.972 Y139.459 E519.07296
G0 F7200 X102.124 Y139.459
G1 F1200 X92.753 Y130.088 E521.94347
G0 F7200 X91.904 Y130.088
G1 F1200 X101.275 Y139.459 E524.81399
G0 F7200 X100.427 Y139.459
G1 F1200 X91.056 Y130.088 E527.6845
G0 F7200 X90.207 Y130.088
G1 F1200 X99.578 Y139.459 E530.55501
G0 F7200 X98.73 Y139.459
G1 F1200 X89.358 Y130.088 E533.42567
G0 F7200 X88.51 Y130.088
G1 F1200 X97.881 Y139.459 E536.29619
G0 F7200 X97.033 Y139.459
G1 F1200 X87.661 Y130.088 E539.16685
G0 F7200 X86.813 Y130.088
G1 F1200 X96.184 Y139.459 E542.03736
G0 F7200 X95.336 Y139.459
G1 F1200 X85.964 Y130.088 E544.90803
G0 F7200 X85.116 Y130.088
G1 F1200 X94.487 Y139.459 E547.77854
G0 F7200 X93.639 Y139.459
G1 F1200 X84.267 Y130.088 E550.64921
G0 F7200 X83.419 Y130.088
G1 F1200 X92.79 Y139.459 E553.51972
G0 F7200 X91.942 Y139.459
G1 F1200 X82.57 Y130.088 E556.39038
G0 F7200 X81.722 Y130.088
G1 F1200 X91.093 Y139.459 E559.2609
G0 F7200 X90.245 Y139.459
G1 F1200 X80.873 Y130.088 E562.13156
G0 F7200 X80.025 Y130.088
G1 F1200 X89.396 Y139.459 E565.00207
G0 F7200 X88.547 Y139.459
G1 F1200 X79.176 Y130.088 E567.87259
G0 F7200 X78.328 Y130.088
G1 F1200 X87.699 Y139.459 E570.7431
G0 F7200 X86.85 Y139.459
G1 F1200 X77.479 Y130.088 E573.61361
G0 F7200 X76.631 Y130.088
G1 F1200 X86.002 Y139.459 E576.48412
G0 F7200 X85.153 Y139.459
G1 F1200 X75.841 Y130.147 E579.33656
G0 F7200 X75.223 Y130.377
G1 F1200 X84.305 Y139.459 E582.11855
G0 F7200 X83.456 Y139.459
G1 F1200 X74.674 Y130.677 E584.80864
G0 F7200 X74.205 Y131.057
G1 F1200 X82.608 Y139.459 E587.38248
G0 F7200 X81.759 Y139.459
G1 F1200 X73.842 Y131.542 E589.80761
G0 F7200 X73.555 Y132.104
G1 F1200 X80.911 Y139.459 E592.06073
G0 F7200 X80.062 Y139.459
G1 F1200 X73.359 Y132.756 E594.11399
G0 F7200 X73.312 Y133.558
G1 F1200 X79.214 Y139.459 E595.92173
G0 F7200 X78.365 Y139.459
G1 F1200 X73.312 Y134.406 E597.46955
G0 F7200 X73.312 Y135.255
G1 F1200 X77.517 Y139.459 E598.75747
G0 F7200 X76.668 Y139.459
G1 F1200 X73.312 Y136.103 E599.78548
G0 F7200 X73.312 Y136.952
G1 F1200 X75.82 Y139.459 E600.55357
G0 F7200 X74.971 Y139.459
G1 F1200 X73.312 Y137.8 E601.06175
G0 F7200 X73.274 Y138.611
G1 F1200 X74.122 Y139.459 E601.32151
G0 F7200 X73.274 Y139.459
G1 F1200 X73.036 Y139.222 E601.39426
G10
G0 F7200 X72.509 Y138.81
G0 X39.245 Y140.021
