;FLAVOR:UltiGCode
;TIME:23869
;MATERIAL:55262
;MATERIAL2:0
;NOZZLE_DIAMETER:0.6
;MINX:18.415
;MINY:101.715
;MINZ:0.4
;MAXX:204.585
;MAXY:121.285
;MAXZ:100
;TARGET_MACHINE.NAME:Ultimaker 2+
;Generated with Cura_SteamEngine 5.8.1
M82 ;absolute extrusion mode
G0 F3000 Y50 ;avoid prime blob
G92 E0
G92 E0
G10
;LAYER_COUNT:665
;LAYER:0
M107
G0 F7200 X22.968 Y109.271 Z0.4
;TYPE:SKIRT
G11
G1 F1800 X23.519 Y109.216 E0.1329
G1 X37.542 Y109.215 E3.49842
G1 X40.336 Y109.175 E4.16905
G1 X43.047 Y109.06 E4.82027
G1 X45.79 Y108.866 E5.48024
G1 X48.518 Y108.596 E6.13815
G1 X51.21 Y108.251 E6.78952
G1 X53.934 Y107.823 E7.4513
G1 X56.602 Y107.327 E8.10259
G1 X59.287 Y106.749 E8.76175
G1 X61.894 Y106.111 E9.4059
G1 X64.604 Y105.365 E10.08049
G1 X67.171 Y104.579 E10.7248
G1 X69.774 Y103.701 E11.3841
G1 X73.341 Y102.363 E12.29843
G1 X73.747 Y102.202 E12.40325
G1 X74.233 Y102.04 E12.5262
G1 X74.992 Y101.868 E12.71298
G1 X75.533 Y101.778 E12.8446
G1 X76.642 Y101.719 E13.11114
G1 X145.839 Y101.715 E29.71842
G1 X146.897 Y101.734 E29.97238
G1 X147.698 Y101.814 E30.16558
G1 X148.194 Y101.903 E30.28652
G1 X149.05 Y102.124 E30.49869
G1 X151.702 Y103.142 E31.18046
G1 X154.234 Y104.046 E31.82571
G1 X156.874 Y104.903 E32.49185
G1 X159.483 Y105.669 E33.14444
G1 X162.105 Y106.359 E33.79515
G1 X164.8 Y106.989 E34.45939
G1 X167.492 Y107.536 E35.11867
G1 X170.154 Y108 E35.76718
G1 X172.873 Y108.396 E36.42663
G1 X175.61 Y108.715 E37.08795
G1 X178.307 Y108.952 E37.73773
G1 X181.049 Y109.116 E38.39698
G1 X183.762 Y109.2 E39.04841
G1 X185.457 Y109.215 E39.45523
G1 X198.825 Y109.215 E42.66355
G1 X199.527 Y109.225 E42.83205
G1 X200.038 Y109.273 E42.95523
G1 X200.536 Y109.399 E43.07851
G1 X201.008 Y109.6 E43.20164
G1 X201.443 Y109.873 E43.32489
G1 X201.831 Y110.209 E43.44808
G1 X202.158 Y110.596 E43.56967
G1 X203.953 Y113.088 E44.30676
G1 X204.219 Y113.527 E44.42995
G1 X204.415 Y114.002 E44.55327
G1 X204.534 Y114.501 E44.67639
G1 X204.585 Y115.044 E44.80728
G1 X204.585 Y117.294 E45.34728
G1 X204.575 Y118.021 E45.52178
G1 X204.528 Y118.533 E45.64518
G1 X204.402 Y119.03 E45.76823
G1 X204.201 Y119.503 E45.89157
G1 X203.928 Y119.938 E46.01483
G1 X203.592 Y120.326 E46.13801
G1 X203.199 Y120.657 E46.26133
G1 X202.76 Y120.923 E46.38452
G1 X202.285 Y121.118 E46.50776
G1 X201.786 Y121.236 E46.63082
G1 X201.272 Y121.284 E46.75472
G1 X22.379 Y121.285 E89.68904
G1 X21.681 Y121.276 E89.85657
G1 X21.17 Y121.229 E89.97973
G1 X20.672 Y121.104 E90.10295
G1 X20.2 Y120.903 E90.22608
G1 X19.764 Y120.631 E90.34941
G1 X19.376 Y120.295 E90.47259
G1 X19.045 Y119.903 E90.59573
G1 X18.778 Y119.464 E90.71904
G1 X18.583 Y118.989 E90.84228
G1 X18.464 Y118.49 E90.9654
G1 X18.416 Y117.968 E91.0912
G1 X18.415 Y115.675 E91.64152
G1 X18.425 Y114.973 E91.81002
G1 X18.473 Y114.462 E91.9332
G1 X18.599 Y113.964 E92.05649
G1 X18.86 Y113.352 E92.21617
G1 X20.842 Y110.597 E93.03069
G1 X21.174 Y110.204 E93.15417
G1 X21.562 Y109.868 E93.27735
G1 X21.998 Y109.597 E93.40056
G1 X22.47 Y109.396 E93.52368
G1 X22.968 Y109.271 E93.64691
G10
;MESH:Part_Acrylic_Case_Right.STL
G0 F7200 X70.814 Y110.036
G0 X72.255 Y110.036
G0 X199.45 Y116.295
G0 X199.236 Y115.432
;TYPE:WALL-OUTER
G11
G1 F1500 X199.064 Y115.225 E93.71796
G1 X199.064 Y112.932 E94.32331
G1 X183.932 Y112.932 E98.31816
G1 X183.932 Y115.225 E98.92351
G1 X183.684 Y115.428 E99.00812
G1 X151.364 Y115.432 E107.5406
G1 X151.064 Y115.219 E107.63773
G1 X151.064 Y110.017 E109.01106
G1 X151.002 Y109.271 E109.20868
G1 X150.845 Y108.605 E109.38933
G1 X150.564 Y107.929 E109.58259
G1 X150.184 Y107.309 E109.77457
G1 X149.727 Y106.769 E109.96133
G1 X149.187 Y106.312 E110.14809
G1 X148.571 Y105.936 E110.33862
G1 X147.898 Y105.655 E110.53115
G1 X147.224 Y105.494 E110.7141
G1 X146.467 Y105.432 E110.91461
G1 X76.529 Y105.432 E129.37825
G1 X75.776 Y105.494 E129.57771
G1 X75.102 Y105.655 E129.76065
G1 X74.429 Y105.937 E129.95329
G1 X73.808 Y106.313 E130.14494
G1 X73.269 Y106.769 E130.33133
G1 X72.813 Y107.308 E130.51772
G1 X72.437 Y107.929 E130.70937
G1 X72.155 Y108.606 E130.90299
G1 X71.994 Y109.272 E131.08388
G1 X71.932 Y110.029 E131.28439
G1 X71.932 Y115.218 E132.65429
G1 X71.684 Y115.428 E132.74008
G1 X39.364 Y115.432 E141.27256
G1 X39.064 Y115.225 E141.36878
G1 X39.064 Y112.932 E141.97414
G1 X23.932 Y112.932 E145.96898
G1 X23.932 Y115.225 E146.57434
G1 X23.684 Y115.428 E146.65895
G1 X22.132 Y115.432 E147.06867
G1 X22.132 Y117.564 E147.63152
G1 X200.864 Y117.564 E194.81677
G1 X200.864 Y115.432 E195.37962
G1 X199.236 Y115.432 E195.80941
G0 F7200 X199.064 Y115.225
G0 X199.064 Y115.194
G0 X199.414 Y116.36
G0 X200.181 Y116.881
;TYPE:WALL-INNER
G1 F1370.9 X200.181 Y116.115 E196.03238
G1 X199.364 Y116.115 E196.27019
G1 F1559.4 X198.843 Y115.866 E196.42006
G1 F1800 X198.548 Y115.512 E196.52512
G1 X198.465 Y115.172 E196.60492
G1 X198.464 Y113.532 E196.97884
G1 X184.532 Y113.532 E200.15534
G1 X184.531 Y115.172 E200.52926
G1 X184.448 Y115.512 E200.60905
G1 X184.153 Y115.866 E200.71412
G1 F1551.8 X183.788 Y116.115 E200.8293
G1 F1366.9 X151.364 Y116.115 E210.29192
G1 F1559.4 X150.824 Y115.852 E210.44781
G1 F1800 X150.533 Y115.479 E210.55567
G1 X150.464 Y115.132 E210.63634
G1 X150.464 Y110.041 E211.79708
G1 X150.408 Y109.365 E211.95174
G1 X150.272 Y108.791 E212.08623
G1 X150.028 Y108.203 E212.23138
G1 X149.696 Y107.661 E212.3763
G1 X149.301 Y107.195 E212.51558
G1 X148.835 Y106.8 E212.65486
G1 X148.297 Y106.472 E212.79853
G1 X147.711 Y106.227 E212.94334
G1 X147.13 Y106.088 E213.07955
G1 X146.443 Y106.032 E213.2367
G1 X76.553 Y106.032 E229.17162
G1 X75.87 Y106.088 E229.32787
G1 X75.289 Y106.227 E229.46408
G1 X74.702 Y106.473 E229.60919
G1 X74.16 Y106.801 E229.75363
G1 X73.695 Y107.195 E229.89259
G1 X73.301 Y107.66 E230.03155
G1 X72.973 Y108.201 E230.1758
G1 X72.727 Y108.793 E230.32197
G1 X72.588 Y109.367 E230.45662
G1 X72.532 Y110.053 E230.61355
G1 X72.532 Y115.132 E231.77156
G1 X72.463 Y115.479 E231.85223
G1 X72.172 Y115.853 E231.96027
G1 F1551.8 X71.788 Y116.115 E232.08145
G1 F1366.9 X39.364 Y116.115 E241.54407
G1 F1559.4 X38.843 Y115.866 E241.69394
G1 F1800 X38.548 Y115.512 E241.799
G1 X38.465 Y115.172 E241.8788
G1 X38.464 Y113.532 E242.25272
G1 X24.532 Y113.532 E245.42922
G1 X24.531 Y115.172 E245.80314
G1 X24.448 Y115.512 E245.88293
G1 X24.153 Y115.866 E245.988
G1 F1551.8 X23.788 Y116.115 E246.10318
G1 F1366.9 X22.815 Y116.115 E246.38714
G1 F1370.9 X22.815 Y116.881 E246.6101
G1 F1358.9 X23.869 Y116.876 E246.91931
G1 F1546.7 X24.503 Y116.965 E247.08669
G1 F1800 X38.493 Y116.965 E250.27641
G1 F1559.4 X39.364 Y116.881 E250.50352
G1 F1364.9 X55.617 Y116.879 E255.25297
G1 F1354.9 X71.87 Y116.876 E260.0333
G1 F1546.7 X72.542 Y116.964 E260.21049
G1 F1800 X150.453 Y116.965 E277.9742
G1 F1559.4 X151.364 Y116.881 E278.21164
G1 F1364.9 X167.617 Y116.879 E282.96109
G1 F1354.9 X183.87 Y116.876 E287.74142
G1 F1546.7 X184.503 Y116.965 E287.90854
G1 F1800 X198.493 Y116.965 E291.09826
G1 F1559.4 X199.364 Y116.881 E291.32537
G1 F1370.9 X200.181 Y116.881 E291.56318
G0 F7200 X199.895 Y116.595
G0 X198.842 Y116.412
;TYPE:SKIN
G1 F1200 X198.549 Y116.241 E291.63667
G1 X198.153 Y115.773 E291.76945
G1 X197.984 Y115.184 E291.90218
G1 X197.984 Y114.012 E292.15603
G1 X185.012 Y114.012 E294.96577
G1 X185.008 Y115.184 E295.21963
G1 X184.84 Y115.771 E295.35187
G1 X184.304 Y116.42 E295.53419
G1 X184.526 Y116.484 E295.58424
G1 X198.471 Y116.484 E298.60472
G1 X198.842 Y116.412 E298.68658
G0 F7200 X199.245 Y116.745
G0 X198.737 Y115.763
G0 X198.385 Y114.528
G0 X197.684 Y114.528
G1 F1200 X197.467 Y114.312 E298.7529
G0 F7200 X196.619 Y114.312
G1 F1200 X197.735 Y115.428 E299.09475
G0 F7200 X197.642 Y116.183
G1 F1200 X195.77 Y114.312 E299.66803
G0 F7200 X194.922 Y114.312
G1 F1200 X196.793 Y116.183 E300.24115
G0 F7200 X195.945 Y116.183
G1 F1200 X194.073 Y114.312 E300.81442
G0 F7200 X193.225 Y114.312
G1 F1200 X195.096 Y116.183 E301.38755
G0 F7200 X194.248 Y116.183
G1 F1200 X192.376 Y114.312 E301.96082
G0 F7200 X191.528 Y114.312
G1 F1200 X193.399 Y116.183 E302.53394
G0 F7200 X192.551 Y116.183
G1 F1200 X190.679 Y114.312 E303.10722
G0 F7200 X189.831 Y114.312
G1 F1200 X191.702 Y116.183 E303.68034
G0 F7200 X190.854 Y116.183
G1 F1200 X188.982 Y114.312 E304.25362
G0 F7200 X188.134 Y114.312
G1 F1200 X190.005 Y116.183 E304.82674
G0 F7200 X189.157 Y116.183
G1 F1200 X187.285 Y114.312 E305.40001
G0 F7200 X186.436 Y114.312
G1 F1200 X188.308 Y116.183 E305.97329
G0 F7200 X187.46 Y116.183
G1 F1200 X185.588 Y114.312 E306.54656
G0 F7200 X185.309 Y114.881
G1 F1200 X186.611 Y116.183 E306.94539
G0 F7200 X185.763 Y116.183
G1 F1200 X185.211 Y115.632 E307.11433
G10
G0 F7200 X184.536 Y115.467
G0 X151.234 Y116.746
G0 X150.842 Y116.407
G11
G1 F1200 X150.522 Y116.218 E307.19482
G1 X150.131 Y115.725 E307.33112
G1 X149.989 Y115.179 E307.45331
G1 X149.984 Y110.053 E308.56361
G1 X149.907 Y109.166 E308.75645
G1 X149.596 Y108.422 E308.93112
G1 X149.296 Y107.933 E309.05538
G1 X148.959 Y107.533 E309.16867
G1 X148.556 Y107.193 E309.28287
G1 X148.079 Y106.904 E309.40367
G1 X147.553 Y106.682 E309.52734
G1 X147.056 Y106.562 E309.63808
G1 X146.416 Y106.512 E309.77713
G1 X76.576 Y106.512 E324.90447
G1 X75.94 Y106.562 E325.04265
G1 X75.443 Y106.682 E325.1534
G1 X74.913 Y106.905 E325.27794
G1 X74.436 Y107.193 E325.39863
G1 X74.033 Y107.533 E325.51284
G1 X73.693 Y107.936 E325.62704
G1 X73.405 Y108.409 E325.74699
G1 X73.183 Y108.946 E325.87286
G1 X73.062 Y109.44 E325.98302
G1 X73.012 Y110.076 E326.1212
G1 X73.007 Y115.179 E327.22651
G1 X72.865 Y115.725 E327.34871
G1 X72.325 Y116.419 E327.53917
G1 X72.567 Y116.484 E327.59345
G1 X150.432 Y116.484 E344.45901
G1 X150.842 Y116.407 E344.54937
G0 F7200 X151.234 Y116.746
G0 X150.737 Y115.763
G0 X150.269 Y109.387
G0 X149.902 Y108.267
G0 X149.201 Y107.295
G0 X148.143 Y106.495
G0 X147.872 Y107.142
G1 F1200 X149.357 Y108.628 E345.0044
G0 F7200 X149.659 Y109.778
G1 F1200 X146.718 Y106.837 E345.90529
G0 F7200 X145.844 Y106.812
G1 F1200 X149.684 Y110.652 E347.08155
G0 F7200 X149.684 Y111.5
G1 F1200 X144.996 Y106.812 E348.51757
G0 F7200 X144.147 Y106.812
G1 F1200 X149.684 Y112.349 E350.21366
G0 F7200 X149.684 Y113.197
G1 F1200 X143.299 Y106.812 E352.1695
G0 F7200 X142.45 Y106.812
G1 F1200 X149.684 Y114.046 E354.38541
G0 F7200 X149.684 Y114.894
G1 F1200 X141.602 Y106.812 E356.86108
G0 F7200 X140.753 Y106.812
G1 F1200 X150.083 Y116.142 E359.71903
G0 F7200 X149.276 Y116.183
G1 F1200 X139.905 Y106.812 E362.58954
G0 F7200 X139.056 Y106.812
G1 F1200 X148.427 Y116.183 E365.46006
G0 F7200 X147.579 Y116.183
G1 F1200 X138.208 Y106.812 E368.33057
G0 F7200 X137.359 Y106.812
G1 F1200 X146.73 Y116.183 E371.20108
G0 F7200 X145.882 Y116.183
G1 F1200 X136.51 Y106.812 E374.07175
G0 F7200 X135.662 Y106.812
G1 F1200 X145.033 Y116.183 E376.94226
G0 F7200 X144.185 Y116.183
G1 F1200 X134.813 Y106.812 E379.81292
G0 F7200 X133.965 Y106.812
G1 F1200 X143.336 Y116.183 E382.68344
G0 F7200 X142.488 Y116.183
G1 F1200 X133.116 Y106.812 E385.5541
G0 F7200 X132.268 Y106.812
G1 F1200 X141.639 Y116.183 E388.42461
G0 F7200 X140.791 Y116.183
G1 F1200 X131.419 Y106.812 E391.29528
G0 F7200 X130.571 Y106.812
G1 F1200 X139.942 Y116.183 E394.16579
G0 F7200 X139.094 Y116.183
G1 F1200 X129.722 Y106.812 E397.03646
G0 F7200 X128.874 Y106.812
G1 F1200 X138.245 Y116.183 E399.90697
G0 F7200 X137.397 Y116.183
G1 F1200 X128.025 Y106.812 E402.77763
G0 F7200 X127.177 Y106.812
G1 F1200 X136.548 Y116.183 E405.64815
G0 F7200 X135.699 Y116.183
G1 F1200 X126.328 Y106.812 E408.51866
G0 F7200 X125.48 Y106.812
G1 F1200 X134.851 Y116.183 E411.38917
G0 F7200 X134.002 Y116.183
G1 F1200 X124.631 Y106.812 E414.25968
G0 F7200 X123.783 Y106.812
G1 F1200 X133.154 Y116.183 E417.13019
G0 F7200 X132.305 Y116.183
G1 F1200 X122.934 Y106.812 E420.00071
G0 F7200 X122.086 Y106.812
G1 F1200 X131.457 Y116.183 E422.87122
G0 F7200 X130.608 Y116.183
G1 F1200 X121.237 Y106.812 E425.74173
G0 F7200 X120.388 Y106.812
G1 F1200 X129.76 Y116.183 E428.6124
G0 F7200 X128.911 Y116.183
G1 F1200 X119.54 Y106.812 E431.48291
G0 F7200 X118.691 Y106.812
G1 F1200 X128.063 Y116.183 E434.35357
G0 F7200 X127.214 Y116.183
G1 F1200 X117.843 Y106.812 E437.22409
G0 F7200 X116.994 Y106.812
G1 F1200 X126.366 Y116.183 E440.09475
G0 F7200 X125.517 Y116.183
G1 F1200 X116.146 Y106.812 E442.96526
G0 F7200 X115.297 Y106.812
G1 F1200 X124.669 Y116.183 E445.83593
G0 F7200 X123.82 Y116.183
G1 F1200 X114.449 Y106.812 E448.70644
G0 F7200 X113.6 Y106.812
G1 F1200 X122.972 Y116.183 E451.57711
G0 F7200 X122.123 Y116.183
G1 F1200 X112.752 Y106.812 E454.44762
G0 F7200 X111.903 Y106.812
G1 F1200 X121.274 Y116.183 E457.31813
G0 F7200 X120.426 Y116.183
G1 F1200 X111.055 Y106.812 E460.18864
G0 F7200 X110.206 Y106.812
G1 F1200 X119.577 Y116.183 E463.05915
G0 F7200 X118.729 Y116.183
G1 F1200 X109.358 Y106.812 E465.92967
G0 F7200 X108.509 Y106.812
G1 F1200 X117.88 Y116.183 E468.80018
G0 F7200 X117.032 Y116.183
G1 F1200 X107.661 Y106.812 E471.67069
G0 F7200 X106.812 Y106.812
G1 F1200 X116.183 Y116.183 E474.5412
G0 F7200 X115.335 Y116.183
G1 F1200 X105.963 Y106.812 E477.41187
G0 F7200 X105.115 Y106.812
G1 F1200 X114.486 Y116.183 E480.28238
G0 F7200 X113.638 Y116.183
G1 F1200 X104.266 Y106.812 E483.15305
G0 F7200 X103.418 Y106.812
G1 F1200 X112.789 Y116.183 E486.02356
G0 F7200 X111.941 Y116.183
G1 F1200 X102.569 Y106.812 E488.89422
G0 F7200 X101.721 Y106.812
G1 F1200 X111.091 Y116.183 E491.76458
G0 F7200 X110.243 Y116.183
G1 F1200 X100.872 Y106.812 E494.63509
G0 F7200 X100.024 Y106.812
G1 F1200 X109.394 Y116.183 E497.50545
G0 F7200 X108.546 Y116.183
G1 F1200 X99.175 Y106.812 E500.37597
G0 F7200 X98.327 Y106.812
G1 F1200 X107.697 Y116.183 E503.24632
G0 F7200 X106.849 Y116.183
G1 F1200 X97.478 Y106.812 E506.11684
G0 F7200 X96.63 Y106.812
G1 F1200 X106 Y116.183 E508.9872
G0 F7200 X105.152 Y116.183
G1 F1200 X95.781 Y106.812 E511.85771
G0 F7200 X94.933 Y106.812
G1 F1200 X104.303 Y116.183 E514.72807
G0 F7200 X103.455 Y116.183
G1 F1200 X94.084 Y106.812 E517.59858
G0 F7200 X93.236 Y106.812
G1 F1200 X102.606 Y116.183 E520.46894
G0 F7200 X101.758 Y116.183
G1 F1200 X92.387 Y106.812 E523.33945
G0 F7200 X91.539 Y106.812
G1 F1200 X100.909 Y116.183 E526.20981
G0 F7200 X100.061 Y116.183
G1 F1200 X90.69 Y106.812 E529.08032
G0 F7200 X89.841 Y106.812
G1 F1200 X99.212 Y116.183 E531.95083
G0 F7200 X98.364 Y116.183
G1 F1200 X88.993 Y106.812 E534.82135
G0 F7200 X88.144 Y106.812
G1 F1200 X97.515 Y116.183 E537.69186
G0 F7200 X96.666 Y116.183
G1 F1200 X87.296 Y106.812 E540.56222
G0 F7200 X86.447 Y106.812
G1 F1200 X95.818 Y116.183 E543.43273
G0 F7200 X94.969 Y116.183
G1 F1200 X85.599 Y106.812 E546.30309
G0 F7200 X84.75 Y106.812
G1 F1200 X94.121 Y116.183 E549.1736
G0 F7200 X93.272 Y116.183
G1 F1200 X83.902 Y106.812 E552.04396
G0 F7200 X83.053 Y106.812
G1 F1200 X92.424 Y116.183 E554.91447
G0 F7200 X91.575 Y116.183
G1 F1200 X82.205 Y106.812 E557.78483
G0 F7200 X81.356 Y106.812
G1 F1200 X90.727 Y116.183 E560.65534
G0 F7200 X89.878 Y116.183
G1 F1200 X80.508 Y106.812 E563.5257
G0 F7200 X79.659 Y106.812
G1 F1200 X89.03 Y116.183 E566.39621
G0 F7200 X88.181 Y116.183
G1 F1200 X78.811 Y106.812 E569.26657
G0 F7200 X77.962 Y106.812
G1 F1200 X87.333 Y116.183 E572.13708
G0 F7200 X86.484 Y116.183
G1 F1200 X77.114 Y106.812 E575.00744
G0 F7200 X76.288 Y106.835
G1 F1200 X85.636 Y116.183 E577.87091
G0 F7200 X84.787 Y116.183
G1 F1200 X75.562 Y106.958 E580.6967
G0 F7200 X74.975 Y107.219
G1 F1200 X83.939 Y116.183 E583.44254
G0 F7200 X83.09 Y116.183
G1 F1200 X74.467 Y107.559 E586.08408
G0 F7200 X74.025 Y107.966
G1 F1200 X82.241 Y116.183 E588.60095
G0 F7200 X81.393 Y116.183
G1 F1200 X73.704 Y108.494 E590.95623
G0 F7200 X73.449 Y109.087
G1 F1200 X80.544 Y116.183 E593.12971
G0 F7200 X79.696 Y116.183
G1 F1200 X73.333 Y109.819 E595.07897
G0 F7200 X73.311 Y110.647
G1 F1200 X78.847 Y116.183 E596.77475
G0 F7200 X77.999 Y116.183
G1 F1200 X73.311 Y111.495 E598.21078
G0 F7200 X73.311 Y112.344
G1 F1200 X77.15 Y116.183 E599.38673
G0 F7200 X76.302 Y116.183
G1 F1200 X73.311 Y113.192 E600.30293
G0 F7200 X73.311 Y114.041
G1 F1200 X75.453 Y116.183 E600.95907
G0 F7200 X74.605 Y116.183
G1 F1200 X73.311 Y114.889 E601.35544
G0 F7200 X73.219 Y115.645
G1 F1200 X73.756 Y116.183 E601.52009
G10
