;FLAVOR:UltiGCode
;TIME:5217
;MATERIAL:9868
;MATERIAL2:0
;NOZZLE_DIAMETER:0.6
;MINX:48.215
;MINY:76.028
;MINZ:0.4
;MAXX:174.785
;MAXY:118.598
;MAXZ:3.1
;TARGET_MACHINE.NAME:Ultimaker 2+
;Generated with Cura_SteamEngine 5.8.1
M82 ;absolute extrusion mode
G0 F3000 Y50 ;avoid prime blob
G92 E0
G92 E0
G10
;LAYER_COUNT:19
;LAYER:0
M107
G0 F7200 X49.599 Y76.657 Z0.4
;TYPE:SKIRT
G11
G1 F1800 X50.038 Y76.39 E0.12332
G1 X50.513 Y76.196 E0.24646
G1 X51.013 Y76.077 E0.36981
G1 X51.529 Y76.029 E0.49418
G1 X170.825 Y76.028 E29.12522
G1 X171.523 Y76.038 E29.29276
G1 X172.035 Y76.086 E29.41618
G1 X172.532 Y76.212 E29.53923
G1 X173.004 Y76.413 E29.66236
G1 X173.44 Y76.686 E29.78582
G1 X173.827 Y77.022 E29.90882
G1 X174.158 Y77.415 E30.03214
G1 X174.424 Y77.854 E30.15533
G1 X174.618 Y78.33 E30.27869
G1 X174.737 Y78.829 E30.40181
G1 X174.784 Y79.343 E30.52569
G1 X174.785 Y114.603 E38.98809
G1 X174.776 Y115.33 E39.16258
G1 X174.729 Y115.841 E39.28574
G1 X174.604 Y116.339 E39.40896
G1 X174.404 Y116.812 E39.53221
G1 X174.132 Y117.247 E39.65534
G1 X173.796 Y117.636 E39.77871
G1 X173.404 Y117.967 E39.90184
G1 X172.965 Y118.234 E40.02516
G1 X172.491 Y118.429 E40.14817
G1 X171.991 Y118.549 E40.27158
G1 X171.47 Y118.597 E40.39715
G1 X52.179 Y118.598 E69.02699
G1 X51.481 Y118.589 E69.19452
G1 X50.97 Y118.542 E69.31768
G1 X50.472 Y118.417 E69.44091
G1 X50 Y118.216 E69.56403
G1 X49.564 Y117.944 E69.68736
G1 X49.176 Y117.608 E69.81055
G1 X48.845 Y117.216 E69.93368
G1 X48.578 Y116.777 E70.057
G1 X48.383 Y116.302 E70.18023
G1 X48.264 Y115.803 E70.30335
G1 X48.216 Y115.28 E70.42939
G1 X48.215 Y79.957 E78.90691
G1 X48.224 Y79.292 E79.06653
G1 X48.271 Y78.781 E79.18969
G1 X48.397 Y78.283 E79.31297
G1 X48.598 Y77.811 E79.4361
G1 X48.87 Y77.376 E79.55923
G1 X49.207 Y76.988 E79.68257
G1 X49.599 Y76.657 E79.8057
G10
;MESH:Part_Camera_Cover.STL
G0 F7200 X59.51 Y86.378
G0 X60.978 Y88.644
;TYPE:WALL-OUTER
G11
G1 F1500 X60.476 Y88.337 E79.96105
G1 X60.052 Y87.502 E80.20828
G1 X60.255 Y86.557 E80.46345
G1 X60.812 Y86.03 E80.66588
G1 X61.748 Y85.87 E80.91657
G1 X62.571 Y86.329 E81.16535
G1 X62.896 Y86.969 E81.35485
G1 X62.912 Y87.571 E81.51383
G1 X62.511 Y88.364 E81.74843
G1 X61.632 Y88.759 E82.00284
G1 X60.978 Y88.644 E82.17814
G0 F7200 X60.722 Y88.488
G10
G0 X60.505 Y88.831
G0 X61.738 Y89.548
G0 X61.546 Y105.133
G0 X60.955 Y108.636
G11
G1 F1500 X60.468 Y108.328 E82.33026
G1 X60.053 Y107.502 E82.5743
G1 X60.248 Y106.565 E82.82697
G1 X60.799 Y106.033 E83.02917
G1 X61.749 Y105.87 E83.28364
G1 X62.58 Y106.339 E83.53555
G1 X62.912 Y106.997 E83.73012
G1 X62.896 Y107.599 E83.88911
G1 X62.511 Y108.361 E84.11449
G1 X61.639 Y108.755 E84.36711
G1 X60.955 Y108.636 E84.5504
G0 F7200 X60.702 Y108.476
G10
G0 X60.486 Y108.818
G0 X61.688 Y109.11
G0 X63.667 Y107.766
G0 X97.031 Y104.641
G0 X100.512 Y108.28
G11
G1 F1024.4 X100.721 Y108.538 E84.67355
G10
G0 F7200 X101.128 Y109.139
G0 X102.675 Y110.39
G0 X104.991 Y111.684
G0 X107.535 Y112.583
G0 X110.174 Y113.033
G0 X112.849 Y113.031
G0 X115.465 Y112.583
G0 X118.009 Y111.684
G0 X120.325 Y110.39
G0 X121.851 Y109.16
G0 X122.349 Y108.439
G11
G1 F1035.6 X122.458 Y108.317 E84.73366
G10
G0 F7200 X121.851 Y109.16
G0 X122.141 Y110.351
G0 X123.948 Y110.967
G0 X124.863 Y110.348
G0 X125.06 Y108.671
G0 X123.979 Y107.691
G0 X125.582 Y104.426
G0 X126.588 Y101.92
G0 X127.15 Y99.305
G0 X127.261 Y96.632
G0 X126.925 Y94
G0 X126.135 Y91.421
G0 X124.941 Y89.052
G0 X123.389 Y86.939
G0 X122.925 Y86.701
G11
G1 F926.1 X122.401 Y86.273 E85.00754
G10
G0 F7200 X121.82 Y85.457
G0 X119.204 Y83.545
G0 X116.744 Y82.433
G0 X114.153 Y81.76
G0 X111.511 Y81.536
G0 X108.847 Y81.76
G0 X106.256 Y82.433
G0 X103.796 Y83.545
G0 X101.818 Y84.881
G0 X100.681 Y86.192
G11
G1 F994.5 X100.574 Y86.294 E85.0638
G1 F1090.6 X99.807 Y86.622 E85.3567
G1 F1266.3 X99.097 Y86.592 E85.57527
G1 F1414 X98.468 Y86.167 E85.7867
G1 F1500 X98.188 Y85.547 E85.9663
G1 X98.186 Y85.043 E86.09935
G1 X98.466 Y84.457 E86.27081
G1 X99.052 Y84.032 E86.46192
G1 X99.886 Y84.028 E86.6821
G1 X100.419 Y84.354 E86.84704
G1 X100.742 Y84.838 E87.00066
G1 F1368.4 X100.825 Y85.393 E87.16165
G1 F1178.9 X100.695 Y86.183 E87.42409
G1 F1280.6 X101.267 Y85.811 E87.63185
G1 F1500 X101.828 Y85.279 E87.83595
G1 X104.029 Y83.802 E88.53573
G1 X106.396 Y82.745 E89.22009
G1 X108.908 Y82.096 E89.90503
G1 X111.516 Y81.876 E90.59599
G1 X114.116 Y82.101 E91.28495
G1 X116.604 Y82.745 E91.96343
G1 X119.012 Y83.827 E92.66037
G1 X121.208 Y85.311 E93.36008
G1 X121.805 Y85.884 E93.57854
G1 F1336.5 X122.372 Y86.254 E93.77694
G1 X122.18 Y85.472 E94.0129
G1 F1500 X122.194 Y85.037 E94.1278
G1 X122.465 Y84.458 E94.29657
G1 X123.052 Y84.032 E94.48805
G1 X123.886 Y84.028 E94.70823
G1 X124.451 Y84.373 E94.883
G1 X124.73 Y84.797 E95.01699
G1 X124.833 Y85.435 E95.18761
G1 X124.58 Y86.131 E95.38311
G1 X123.932 Y86.569 E95.5896
G1 F1431.5 X123.393 Y86.631 E95.73904
G1 F1067.7 X122.925 Y86.701 E95.90832
G1 F1087.5 X123.192 Y87.252 E96.12384
G1 F1465 X124.642 Y89.217 E96.78251
G1 F1500 X125.815 Y91.544 E97.47048
G1 X126.584 Y94.044 E98.161
G1 X126.92 Y96.634 E98.85049
G1 X126.811 Y99.245 E99.54039
G1 X126.256 Y101.835 E100.23967
G1 X125.278 Y104.272 E100.93292
G1 X123.902 Y106.499 E101.62402
G1 F1489.1 X122.765 Y107.79 E102.08121
G1 F1221.2 X122.458 Y108.317 E102.27496
G1 F1122.5 X123.086 Y108.028 E102.51161
G1 F1286.9 X123.887 Y108.028 E102.75444
G1 F1421.4 X124.47 Y108.384 E102.94379
G1 F1500 X124.737 Y108.817 E103.07809
G1 X124.829 Y109.435 E103.24304
G1 X124.573 Y110.136 E103.44006
G1 X123.851 Y110.624 E103.67012
G1 X123.097 Y110.593 E103.86935
G1 X122.457 Y110.154 E104.07424
G1 X122.206 Y109.601 E104.23456
G1 F1354.6 X122.184 Y109.075 E104.38698
G1 F1129.1 X122.349 Y108.439 E104.61075
G1 F1226.9 X121.835 Y108.732 E104.79792
G1 F1491.8 X120.111 Y110.123 E105.38566
G1 F1500 X117.848 Y111.379 E106.06894
G1 X115.376 Y112.248 E106.76069
G1 X112.823 Y112.688 E107.44462
G1 X110.173 Y112.688 E108.14422
G1 X107.62 Y112.248 E108.82815
G1 X105.101 Y111.358 E109.53346
G1 X102.862 Y110.108 E110.21043
G1 X101.476 Y108.99 E110.68054
G1 F1387.3 X100.768 Y108.519 E110.92149
G1 F1282.7 X100.827 Y109.456 E111.20694
G1 F1325.4 X100.584 Y110.125 E111.41708
G1 F1436.5 X99.851 Y110.624 E111.66055
G1 F1500 X99.097 Y110.592 E111.85978
G1 X98.461 Y110.161 E112.06261
G1 X98.19 Y109.555 E112.23786
G1 X98.186 Y109.044 E112.37277
G1 X98.477 Y108.449 E112.54763
G1 X99.058 Y108.028 E112.73705
G1 F1354.6 X99.846 Y108.028 E112.96519
G1 F1132.4 X100.512 Y108.28 E113.20707
G1 F1232.7 X100.211 Y107.768 E113.39418
G1 F1494.5 X99.064 Y106.458 E113.85538
G1 F1500 X97.721 Y104.271 E114.53292
G1 X96.74 Y101.836 E115.22597
G1 X96.187 Y99.262 E115.92101
G1 X96.076 Y96.662 E116.60804
G1 X96.408 Y94.061 E117.30027
G1 X97.181 Y91.544 E117.99539
G1 X98.355 Y89.215 E118.68395
G1 X99.891 Y87.141 E119.36529
G1 X100.171 Y86.865 E119.46908
G1 F1202.5 X100.574 Y86.294 E119.69418
G0 F7200 X100.299 Y86.411
G10
G0 X99.59 Y86.947
G0 X98.141 Y86.351
G0 X97.872 Y84.888
G0 X98.95 Y83.691
G0 X100.706 Y84.136
G0 X101.598 Y85.03
G0 X103.796 Y83.545
G0 X106.256 Y82.433
G0 X108.847 Y81.76
G0 X111.511 Y81.536
G0 X114.153 Y81.76
G0 X116.744 Y82.433
G0 X119.204 Y83.545
G0 X121.872 Y84.888
G0 X122.95 Y83.691
G0 X124.706 Y84.136
G0 X125.182 Y85.474
G0 X123.948 Y86.967
G0 X126 Y91.167
G0 X159.399 Y87.9
G0 X160.956 Y88.642
G11
G1 F1500 X160.476 Y88.338 E119.84418
G1 X160.05 Y87.502 E120.09189
G1 X160.252 Y86.566 E120.34468
G1 X160.811 Y86.03 E120.54913
G1 X161.748 Y85.87 E120.80008
G1 X162.579 Y86.333 E121.05122
G1 X162.909 Y86.997 E121.24697
G1 X162.908 Y87.573 E121.39904
G1 X162.509 Y88.365 E121.63316
G1 X161.639 Y88.759 E121.88529
G1 X160.956 Y88.642 E122.06823
G0 F7200 X160.703 Y88.482
G10
G0 X160.489 Y88.82
G0 X161.507 Y89.51
G0 X161.563 Y105.131
G0 X162.909 Y106.997
G11
G1 F1500 X162.908 Y107.573 E122.2203
G1 X162.513 Y108.367 E122.45442
G1 X161.638 Y108.755 E122.70711
G1 X160.955 Y108.636 E122.89014
G1 X160.468 Y108.329 E123.04212
G1 X160.05 Y107.499 E123.28746
G1 X160.25 Y106.563 E123.54014
G1 X160.809 Y106.031 E123.74387
G1 X161.745 Y105.871 E123.99456
G1 X162.574 Y106.334 E124.24523
G1 X162.909 Y106.997 E124.44134
G0 F7200 X162.909 Y107.297
G10
G0 X163.316 Y107.269
G0 X163.172 Y108.748
G0 X163.172 Y114.097
G0 X171.064 Y114.876
G11
G1 F1500 X171.064 Y79.748 E133.71513
G1 X51.932 Y79.748 E165.16598
G1 X51.933 Y114.875 E174.43951
G1 X171.064 Y114.876 E205.89009
G0 F7200 X171.064 Y114.576
G0 X170.464 Y114.276
;TYPE:WALL-INNER
G1 F1800 X170.464 Y80.348 E213.62568
G1 X116.985 Y80.348 E225.81889
G1 F1717.8 X116.129 Y80.374 E226.02261
G1 F1567.1 X115.272 Y80.4 E226.24416
G1 F1443 X114.415 Y80.427 E226.48266
G1 F1275.9 X114.166 Y80.486 E226.56201
G1 F1224.3 X112.841 Y80.458 E226.98806
G1 F1320 X111.516 Y80.43 E227.38692
G1 F1316.2 X110.11 Y80.459 E227.81123
G1 F1212.7 X108.704 Y80.489 E228.26708
G1 F1211.1 X108.585 Y80.46 E228.30683
G1 F1327.6 X107.729 Y80.423 E228.56339
G1 F1486.2 X106.873 Y80.386 E228.79553
G1 F1682.1 X106.016 Y80.349 E229.00349
G1 F1800 X52.532 Y80.348 E241.19784
G1 X52.533 Y114.275 E248.9332
G1 X108.388 Y114.275 E261.66814
G1 F1416.8 X108.986 Y114.132 E261.84197
G1 F1234.3 X110.224 Y114.18 E262.23744
G1 F1308.7 X113.01 Y114.175 E263.08227
G1 F1224.3 X113.999 Y114.133 E263.4005
G1 F1416.8 X114.597 Y114.277 E263.5744
G1 F1800 X170.464 Y114.276 E276.31207
G10
G0 F7200 X159.705 Y114.097
G0 X160.737 Y109.377
G0 X159.705 Y106.254
G11
G1 F1800 X160.374 Y105.614 E276.52316
G1 X160.729 Y105.437 E276.6136
G1 X161.615 Y105.283 E276.81864
G1 X162.004 Y105.326 E276.90787
G1 X162.868 Y105.809 E277.13356
G1 X163.11 Y106.056 E277.2124
G1 X163.497 Y106.825 E277.40868
G1 X163.517 Y107.705 E277.60937
G1 X163.038 Y108.658 E277.85256
G1 X162.795 Y108.897 E277.93027
G1 X161.862 Y109.318 E278.16365
G1 X161.568 Y109.356 E278.23124
G1 X160.723 Y109.212 E278.42667
G1 X159.994 Y108.722 E278.62694
G1 X159.519 Y107.785 E278.86646
G1 X159.447 Y107.439 E278.94704
G1 X159.705 Y106.254 E279.22355
G10
G0 F7200 X161.563 Y105.131
G0 X161.507 Y89.51
G0 X161.718 Y89.385
G11
G1 F1800 X160.743 Y89.211 E279.44936
G1 X160.014 Y88.758 E279.64505
G1 X159.526 Y87.801 E279.88998
G1 X159.467 Y87.375 E279.98803
G1 X159.66 Y86.45 E280.20347
G1 X159.827 Y86.138 E280.28416
G1 X160.404 Y85.583 E280.4667
G1 X160.669 Y85.445 E280.53482
G1 X161.677 Y85.273 E280.76796
G1 X162.017 Y85.333 E280.84668
G1 X162.897 Y85.824 E281.07644
G1 X163.099 Y86.035 E281.14304
G1 X163.497 Y86.823 E281.34432
G1 X163.517 Y87.706 E281.54569
G1 X163.055 Y88.623 E281.77981
G1 X162.758 Y88.907 E281.8735
G1 X161.718 Y89.385 E282.13447
G10
G0 F7200 X159.888 Y88.87
G0 X125.98 Y104.612
G0 X121.593 Y109.701
G11
G1 F1800 X120.468 Y110.607 E282.4638
G1 X118.119 Y111.92 E283.07736
G1 X115.551 Y112.827 E283.69831
G1 X114.489 Y113.01 E283.94402
G1 F1416.8 X113.924 Y113.253 E284.1179
G1 F1230.9 X112.872 Y113.388 E284.45726
G1 F1308.7 X110.124 Y113.388 E285.29056
G1 F1229.3 X109.061 Y113.251 E285.6339
G1 F1416.8 X108.496 Y113.009 E285.80767
G1 F1800 X107.448 Y112.828 E286.05015
G1 X104.876 Y111.92 E286.67204
G1 X102.522 Y110.602 E287.28715
G1 X101.383 Y109.684 E287.62069
G1 X101.179 Y110.244 E287.75658
G1 X100.921 Y110.625 E287.86149
G1 X100.025 Y111.23 E288.10799
G1 X98.902 Y111.186 E288.36423
G1 X97.986 Y110.564 E288.61668
G1 X97.585 Y109.685 E288.83696
G1 X97.592 Y108.903 E289.01526
G1 X97.989 Y108.062 E289.2273
G1 X98.627 Y107.6 E289.4069
G1 X99.123 Y107.438 E289.52586
G1 X98.592 Y106.837 E289.70871
G1 X97.171 Y104.511 E290.33018
G1 X96.166 Y102.01 E290.94472
G1 X95.594 Y99.353 E291.5644
G1 X95.473 Y96.657 E292.1797
G1 X95.818 Y93.953 E292.80121
G1 X96.624 Y91.321 E293.42882
G1 X97.841 Y88.9 E294.04662
G1 X99.114 Y87.182 E294.53414
G1 X98.691 Y87.042 E294.63573
G1 X97.985 Y86.562 E294.83038
G1 X97.585 Y85.684 E295.05036
G1 X97.593 Y84.889 E295.23163
G1 X97.991 Y84.061 E295.44109
G1 X98.627 Y83.599 E295.62032
G1 X99.051 Y83.428 E295.72455
G1 X100.054 Y83.428 E295.95324
G1 X100.751 Y83.854 E296.13948
G1 X101.199 Y84.403 E296.30104
G1 X101.355 Y84.875 E296.41439
G1 X103.715 Y83.284 E297.06332
G1 X106.104 Y82.214 E297.66015
G1 F1711.7 X106.754 Y82.014 E297.82244
G1 F1554.3 X107.405 Y81.813 E297.99979
G1 F1423.2 X108.056 Y81.613 E298.19156
G1 F1308.7 X108.706 Y81.412 E298.39787
G1 F1211.1 X108.78 Y81.366 E298.42615
G1 X111.517 Y81.191 E299.31617
G1 F1217.6 X114.129 Y81.358 E300.16157
G1 F1275.9 X114.286 Y81.444 E300.21708
G1 F1427.6 X115.562 Y81.816 E300.59032
G1 F1519.6 X116.838 Y82.188 E300.94336
G1 F1622.7 X118.059 Y82.736 E301.27851
G1 F1736.1 X119.281 Y83.284 E301.59404
G1 F1800 X121.611 Y84.854 E302.23462
G1 X121.892 Y84.267 E302.383
G1 X122.175 Y83.927 E302.48386
G1 X122.627 Y83.599 E302.61119
G1 X123.051 Y83.428 E302.71543
G1 X124.054 Y83.428 E302.94412
G1 X124.846 Y83.911 E303.15562
G1 X125.308 Y84.554 E303.33614
G1 X125.447 Y85.491 E303.55212
G1 X125.073 Y86.522 E303.80218
G1 X124.268 Y87.066 E304.02369
G1 X123.88 Y87.176 E304.11564
G1 X125.157 Y88.909 E304.60646
G1 X126.372 Y91.321 E305.22222
G1 X127.178 Y93.952 E305.84961
G1 X127.523 Y96.63 E306.46524
G1 X127.402 Y99.353 E307.08669
G1 X126.83 Y102.009 E307.70615
G1 X125.827 Y104.516 E308.32179
G1 X124.405 Y106.835 E308.94201
G1 X123.866 Y107.446 E309.12778
G1 X124.27 Y107.559 E309.22343
G1 X124.913 Y107.951 E309.39513
G1 X125.319 Y108.651 E309.57963
G1 X125.449 Y109.499 E309.77523
G1 X125.138 Y110.354 E309.98267
G1 X124.95 Y110.606 E310.05435
G1 X124.025 Y111.23 E310.30875
G1 X122.903 Y111.186 E310.56476
G1 X121.982 Y110.558 E310.81892
G1 X121.593 Y109.701 E311.03351
G10
G0 F7200 X118.009 Y111.684
G0 X115.465 Y112.583
G0 X112.849 Y113.031
G0 X110.174 Y113.033
G0 X107.535 Y112.583
G0 X104.991 Y111.684
G0 X101.116 Y109.656
G0 X99.948 Y110.967
G0 X98.302 Y110.46
G0 X97.427 Y109.648
G0 X62.84 Y109.054
G0 X61.568 Y109.356
G11
G1 F1800 X60.723 Y109.212 E311.22894
G1 X59.995 Y108.723 E311.4289
G1 X59.484 Y107.715 E311.68656
G1 X59.461 Y107.379 E311.76335
G1 X59.663 Y106.436 E311.98323
G1 X59.84 Y106.125 E312.06482
G1 X60.376 Y105.608 E312.23461
G1 X60.702 Y105.444 E312.31782
G1 X61.608 Y105.287 E312.52746
G1 X61.974 Y105.315 E312.61116
G1 X62.846 Y105.795 E312.8381
G1 X63.14 Y106.115 E312.93718
G1 X63.508 Y106.849 E313.12439
G1 X63.508 Y107.722 E313.32343
G1 X63.056 Y108.623 E313.55326
G1 X62.767 Y108.91 E313.64612
G1 X61.862 Y109.318 E313.87246
G1 X61.568 Y109.356 E313.94005
G10
G0 F7200 X62.76 Y108.625
G0 X63.278 Y107.597
G0 X62.874 Y106.171
G0 X61.546 Y105.133
G0 X61.738 Y89.548
G0 X59.702 Y86.258
G11
G1 F1800 X60.404 Y85.582 E314.16225
G1 X60.67 Y85.445 E314.23047
G1 X61.677 Y85.273 E314.46339
G1 X62.017 Y85.333 E314.54211
G1 X62.903 Y85.828 E314.77351
G1 X63.106 Y86.047 E314.84159
G1 X63.507 Y86.842 E315.04461
G1 X63.514 Y87.694 E315.23887
G1 X63.049 Y88.636 E315.47839
G1 X62.744 Y88.92 E315.57341
G1 X61.88 Y89.31 E315.78954
G1 X61.495 Y89.343 E315.87764
G1 X60.731 Y89.213 E316.05433
G1 X60.005 Y88.742 E316.25165
G1 X59.484 Y87.715 E316.51421
G1 X59.461 Y87.379 E316.591
G1 X59.702 Y86.258 E316.85242
G0 F7200 X59.696 Y87.545
G0 X60.214 Y88.574
G0 X61.728 Y89.468
G0 X61.778 Y89.879
;TYPE:SKIN
G1 F1200 X60.551 Y89.668 E317.12209
G1 X59.822 Y89.193 E317.31056
G1 X59.516 Y88.841 E317.41158
G1 X59.057 Y87.941 E317.63041
G1 X58.977 Y87.331 E317.76367
G1 X59.202 Y86.271 E317.99838
G1 X59.399 Y85.877 E318.09379
G1 X60.079 Y85.223 E318.29815
G1 X60.568 Y84.976 E318.41681
G1 X61.632 Y84.796 E318.65054
G1 X62.222 Y84.897 E318.7802
G1 X63.195 Y85.438 E319.02134
G1 X63.524 Y85.812 E319.12923
G1 X63.982 Y86.725 E319.35047
G1 X63.983 Y87.839 E319.59176
G1 X63.418 Y88.962 E319.86406
G1 X62.979 Y89.333 E319.98855
G1 X61.778 Y89.879 E320.27431
G10
G0 F7200 X61.728 Y89.468
G0 X61.546 Y105.133
G0 X62.134 Y104.848
G11
G1 F1200 X63.111 Y105.392 E320.51652
G1 X63.494 Y105.746 E320.62949
G1 X63.983 Y106.73 E320.86749
G1 X63.982 Y107.845 E321.109
G1 X63.459 Y108.891 E321.3623
G1 X63.02 Y109.321 E321.4954
G1 X62.001 Y109.78 E321.73748
G1 X61.504 Y109.832 E321.84572
G1 X60.627 Y109.679 E322.03854
G1 X59.824 Y109.214 E322.23953
G1 X59.528 Y108.865 E322.33865
G1 X59.057 Y107.94 E322.56348
G1 X58.977 Y107.33 E322.69674
